public/resources/lut/BW.cube
LUT_3D_SIZE 6
0.000000 0.000000 0.000000
0.054039 0.054039 0.054039
0.113218 0.113218 0.113218
0.174422 0.174422 0.174422
0.236364 0.236364 0.236364
0.298877 0.298877 0.298877
0.110978 0.110978 0.110978
0.172339 0.172339 0.172339
0.234249 0.234249 0.234249
0.297105 0.297105 0.297105
0.361357 0.361357 0.361357
0.423940 0.423940 0.423940
0.231959 0.231959 0.231959
0.294951 0.294951 0.294951
0.358181 0.358181 0.358181
0.422181 0.422181 0.422181
0.486570 0.486570 0.486570
0.551250 0.551250 0.551250
0.355805 0.355805 0.355805
0.420043 0.420043 0.420043
0.484346 0.484346 0.484346
0.549373 0.549373 0.549373
0.613608 0.613608 0.613608
0.676852 0.676852 0.676852
0.482117 0.482117 0.482117
0.547146 0.547146 0.547146
0.611479 0.611479 0.611479
0.674870 0.674870 0.674870
0.737026 0.737026 0.737026
0.797522 0.797522 0.797522
0.608028 0.608028 0.608028
0.670800 0.670800 0.670800
0.733902 0.733902 0.733902
0.794826 0.794826 0.794826
0.853133 0.853133 0.853133
0.908914 0.908914 0.908914
0.019209 0.019209 0.019209
0.076366 0.076366 0.076366
0.136448 0.136448 0.136448
0.198003 0.198003 0.198003
0.260268 0.260268 0.260268
0.323061 0.323061 0.323061
0.134192 0.134192 0.134192
0.195972 0.195972 0.195972
0.258098 0.258098 0.258098
0.321108 0.321108 0.321108
0.384564 0.384564 0.384564
0.448713 0.448713 0.448713
0.255840 0.255840 0.255840
0.318023 0.318023 0.318023
0.382400 0.382400 0.382400
0.446828 0.446828 0.446828
0.511445 0.511445 0.511445
0.575879 0.575879 0.575879
0.380194 0.380194 0.380194
0.444629 0.444629 0.444629
0.509264 0.509264 0.509264
0.574039 0.574039 0.574039
0.637904 0.637904 0.637904
0.700680 0.700680 0.700680
0.506859 0.506859 0.506859
0.571818 0.571818 0.571818
0.635874 0.635874 0.635874
0.699087 0.699087 0.699087
0.761626 0.761626 0.761626
0.819978 0.819978 0.819978
0.632481 0.632481 0.632481
0.695946 0.695946 0.695946
0.757516 0.757516 0.757516
0.817392 0.817392 0.817392
0.874749 0.874749 0.874749
0.928474 0.928474 0.928474
0.040240 0.040240 0.040240
0.098089 0.098089 0.098089
0.159788 0.159788 0.159788
0.221684 0.221684 0.221684
0.284224 0.284224 0.284224
0.347198 0.347198 0.347198
0.157490 0.157490 0.157490
0.219584 0.219584 0.219584
0.282071 0.282071 0.282071
0.345475 0.345475 0.345475
0.409222 0.409222 0.409222
0.473218 0.473218 0.473218
0.279821 0.279821 0.279821
0.343219 0.343219 0.343219
0.406874 0.406874 0.406874
0.471353 0.471353 0.471353
0.536137 0.536137 0.536137
0.600413 0.600413 0.600413
0.404598 0.404598 0.404598
0.469178 0.469178 0.469178
0.533935 0.533935 0.533935
0.598513 0.598513 0.598513
0.663121 0.663121 0.663121
0.724347 0.724347 0.724347
0.531559 0.531559 0.531559
0.596410 0.596410 0.596410
0.659893 0.659893 0.659893
0.722822 0.722822 0.722822
0.783506 0.783506 0.783506
0.842441 0.842441 0.842441
0.656531 0.656531 0.656531
0.719620 0.719620 0.719620
0.780460 0.780460 0.780460
0.839811 0.839811 0.839811
0.896114 0.896114 0.896114
0.946916 0.946916 0.946916
0.062233 0.062233 0.062233
0.122170 0.122170 0.122170
0.183285 0.183285 0.183285
0.245546 0.245546 0.245546
0.308327 0.308327 0.308327
0.371404 0.371404 0.371404
0.181035 0.181035 0.181035
0.243453 0.243453 0.243453
0.306175 0.306175 0.306175
0.369640 0.369640 0.369640
0.434644 0.434644 0.434644
0.497919 0.497919 0.497919
0.303848 0.303848 0.303848
0.367477 0.367477 0.367477
0.431432 0.431432 0.431432
0.496116 0.496116 0.496116
0.560836 0.560836 0.560836
0.624707 0.624707 0.624707
0.429142 0.429142 0.429142
0.493943 0.493943 0.493943
0.558683 0.558683 0.558683
0.623013 0.623013 0.623013
0.686143 0.686143 0.686143
0.747729 0.747729 0.747729
0.556294 0.556294 0.556294
0.619683 0.619683 0.619683
0.684085 0.684085 0.684085
0.745871 0.745871 0.745871
0.806277 0.806277 0.806277
0.864051 0.864051 0.864051
0.680697 0.680697 0.680697
0.742172 0.742172 0.742172
0.803469 0.803469 0.803469
0.861681 0.861681 0.861681
0.916637 0.916637 0.916637
0.963804 0.963804 0.963804
0.084675 0.084675 0.084675
0.145333 0.145333 0.145333
0.206921 0.206921 0.206921
0.269435 0.269435 0.269435
0.333389 0.333389 0.333389
0.395941 0.395941 0.395941
0.204688 0.204688 0.204688
0.267285 0.267285 0.267285
0.330256 0.330256 0.330256
0.394069 0.394069 0.394069
0.458202 0.458202 0.458202
0.522732 0.522732 0.522732
0.328028 0.328028 0.328028
0.390908 0.390908 0.390908
0.456016 0.456016 0.456016
0.520889 0.520889 0.520889
0.585402 0.585402 0.585402
0.649100 0.649100 0.649100
0.453669 0.453669 0.453669
0.518866 0.518866 0.518866
0.583303 0.583303 0.583303
0.647183 0.647183 0.647183
0.709901 0.709901 0.709901
0.770990 0.770990 0.770990
0.580911 0.580911 0.580911
0.645066 0.645066 0.645066
0.707949 0.707949 0.707949
0.769593 0.769593 0.769593
0.829812 0.829812 0.829812
0.885726 0.885726 0.885726
0.704532 0.704532 0.704532
0.766536 0.766536 0.766536
0.825962 0.825962 0.825962
0.883104 0.883104 0.883104
0.935837 0.935837 0.935837
0.979236 0.979236 0.979236
0.107345 0.107345 0.107345
0.167645 0.167645 0.167645
0.230462 0.230462 0.230462
0.293316 0.293316 0.293316
0.356524 0.356524 0.356524
0.420072 0.420072 0.420072
0.228167 0.228167 0.228167
0.291132 0.291132 0.291132
0.354369 0.354369 0.354369
0.418356 0.418356 0.418356
0.482751 0.482751 0.482751
0.547373 0.547373 0.547373
0.352077 0.352077 0.352077
0.416223 0.416223 0.416223
0.480688 0.480688 0.480688
0.545455 0.545455 0.545455
0.609728 0.609728 0.609728
0.672962 0.672962 0.672962
0.478048 0.478048 0.478048
0.543304 0.543304 0.543304
0.607561 0.607561 0.607561
0.671171 0.671171 0.671171
0.734359 0.734359 0.734359
0.793875 0.793875 0.793875
0.605216 0.605216 0.605216
0.669066 0.669066 0.669066
0.731218 0.731218 0.731218
0.792152 0.792152 0.792152
0.850734 0.850734 0.850734
0.906279 0.906279 0.906279
0.727907 0.727907 0.727907
0.789033 0.789033 0.789033
0.847881 0.847881 0.847881
0.904158 0.904158 0.904158
0.953406 0.953406 0.953406
0.988485 0.988485 0.988485
