public/resources/lut/BW.cube
LUT_3D_SIZE 16
0.000000 0.000000 0.000000
0.016625 0.016625 0.016625
0.034112 0.034112 0.034112
0.054039 0.054039 0.054039
0.073127 0.073127 0.073127
0.093957 0.093957 0.093957
0.113218 0.113218 0.113218
0.133477 0.133477 0.133477
0.153897 0.153897 0.153897
0.174422 0.174422 0.174422
0.195210 0.195210 0.195210
0.216002 0.216002 0.216002
0.236364 0.236364 0.236364
0.258175 0.258175 0.258175
0.278382 0.278382 0.278382
0.298877 0.298877 0.298877
0.034192 0.034192 0.034192
0.053194 0.053194 0.053194
0.071863 0.071863 0.071863
0.092628 0.092628 0.092628
0.112309 0.112309 0.112309
0.133531 0.133531 0.133531
0.153149 0.153149 0.153149
0.173646 0.173646 0.173646
0.194285 0.194285 0.194285
0.214961 0.214961 0.214961
0.235968 0.235968 0.235968
0.256831 0.256831 0.256831
0.277392 0.277392 0.277392
0.298367 0.298367 0.298367
0.319699 0.319699 0.319699
0.340409 0.340409 0.340409
0.071860 0.071860 0.071860
0.091667 0.091667 0.091667
0.110928 0.110928 0.110928
0.132151 0.132151 0.132151
0.152221 0.152221 0.152221
0.173740 0.173740 0.173740
0.193564 0.193564 0.193564
0.214221 0.214221 0.214221
0.235004 0.235004 0.235004
0.255917 0.255917 0.255917
0.277014 0.277014 0.277014
0.298072 0.298072 0.298072
0.319887 0.319887 0.319887
0.339750 0.339750 0.339750
0.361441 0.361441 0.361441
0.382013 0.382013 0.382013
0.110978 0.110978 0.110978
0.131235 0.131235 0.131235
0.150776 0.150776 0.150776
0.172339 0.172339 0.172339
0.192594 0.192594 0.192594
0.213244 0.213244 0.213244
0.234249 0.234249 0.234249
0.255131 0.255131 0.255131
0.276028 0.276028 0.276028
0.297105 0.297105 0.297105
0.318386 0.318386 0.318386
0.339481 0.339481 0.339481
0.361357 0.361357 0.361357
0.381435 0.381435 0.381435
0.403173 0.403173 0.403173
0.423940 0.423940 0.423940
0.150875 0.150875 0.150875
0.171406 0.171406 0.171406
0.192229 0.192229 0.192229
0.212890 0.212890 0.212890
0.233308 0.233308 0.233308
0.254166 0.254166 0.254166
0.275306 0.275306 0.275306
0.296319 0.296319 0.296319
0.317401 0.317401 0.317401
0.338487 0.338487 0.338487
0.359919 0.359919 0.359919
0.381192 0.381192 0.381192
0.403144 0.403144 0.403144
0.423401 0.423401 0.423401
0.445165 0.445165 0.445165
0.466207 0.466207 0.466207
0.191281 0.191281 0.191281
0.211920 0.211920 0.211920
0.232968 0.232968 0.232968
0.253756 0.253756 0.253756
0.274303 0.274303 0.274303
0.295365 0.295365 0.295365
0.316577 0.316577 0.316577
0.337719 0.337719 0.337719
0.358892 0.358892 0.358892
0.380215 0.380215 0.380215
0.401729 0.401729 0.401729
0.423157 0.423157 0.423157
0.444329 0.444329 0.444329
0.465863 0.465863 0.465863
0.487583 0.487583 0.487583
0.508901 0.508901 0.508901
0.231959 0.231959 0.231959
0.252814 0.252814 0.252814
0.273933 0.273933 0.273933
0.294951 0.294951 0.294951
0.315570 0.315570 0.315570
0.336706 0.336706 0.336706
0.358181 0.358181 0.358181
0.379512 0.379512 0.379512
0.400755 0.400755 0.400755
0.422181 0.422181 0.422181
0.443977 0.443977 0.443977
0.464450 0.464450 0.464450
0.486570 0.486570 0.486570
0.508196 0.508196 0.508196
0.530155 0.530155 0.530155
0.551250 0.551250 0.551250
0.273002 0.273002 0.273002
0.293993 0.293993 0.293993
0.315274 0.315274 0.315274
0.336453 0.336453 0.336453
0.358235 0.358235 0.358235
0.378402 0.378402 0.378402
0.400056 0.400056 0.400056
0.421412 0.421412 0.421412
0.442942 0.442942 0.442942
0.464478 0.464478 0.464478
0.486194 0.486194 0.486194
0.506838 0.506838 0.506838
0.529188 0.529188 0.529188
0.550606 0.550606 0.550606
0.572497 0.572497 0.572497
0.593404 0.593404 0.593404
0.314261 0.314261 0.314261
0.335452 0.335452 0.335452
0.356817 0.356817 0.356817
0.378096 0.378096 0.378096
0.400083 0.400083 0.400083
0.420402 0.420402 0.420402
0.442074 0.442074 0.442074
0.463679 0.463679 0.463679
0.485161 0.485161 0.485161
0.506828 0.506828 0.506828
0.528801 0.528801 0.528801
0.549267 0.549267 0.549267
0.571555 0.571555 0.571555
0.592919 0.592919 0.592919
0.614543 0.614543 0.614543
0.635406 0.635406 0.635406
0.355805 0.355805 0.355805
0.377131 0.377131 0.377131
0.398742 0.398742 0.398742
0.420043 0.420043 0.420043
0.441165 0.441165 0.441165
0.462723 0.462723 0.462723
0.484346 0.484346 0.484346
0.506063 0.506063 0.506063
0.527731 0.527731 0.527731
0.549373 0.549373 0.549373
0.571103 0.571103 0.571103
0.592576 0.592576 0.592576
0.613608 0.613608 0.613608
0.634838 0.634838 0.634838
0.656158 0.656158 0.656158
0.676852 0.676852 0.676852
0.397710 0.397710 0.397710
0.419059 0.419059 0.419059
0.440695 0.440695 0.440695
0.461133 0.461133 0.461133
0.483434 0.483434 0.483434
0.505067 0.505067 0.505067
0.526937 0.526937 0.526937
0.548604 0.548604 0.548604
0.570155 0.570155 0.570155
0.591600 0.591600 0.591600
0.613190 0.613190 0.613190
0.634559 0.634559 0.634559
0.655300 0.655300 0.655300
0.676238 0.676238 0.676238
0.697614 0.697614 0.697614
0.717620 0.717620 0.717620
0.439640 0.439640 0.439640
0.461275 0.461275 0.461275
0.482994 0.482994 0.482994
0.503692 0.503692 0.503692
0.525986 0.525986 0.525986
0.547591 0.547591 0.547591
0.569336 0.569336 0.569336
0.590783 0.590783 0.590783
0.612170 0.612170 0.612170
0.633453 0.633453 0.633453
0.654916 0.654916 0.654916
0.675919 0.675919 0.675919
0.696413 0.696413 0.696413
0.717184 0.717184 0.717184
0.738125 0.738125 0.738125
0.758020 0.758020 0.758020
0.482117 0.482117 0.482117
0.503693 0.503693 0.503693
0.525550 0.525550 0.525550
0.547146 0.547146 0.547146
0.568363 0.568363 0.568363
0.589805 0.589805 0.589805
0.611479 0.611479 0.611479
0.632664 0.632664 0.632664
0.653881 0.653881 0.653881
0.674870 0.674870 0.674870
0.695196 0.695196 0.695196
0.716805 0.716805 0.716805
0.737026 0.737026 0.737026
0.758625 0.758625 0.758625
0.778014 0.778014 0.778014
0.797522 0.797522 0.797522
0.524509 0.524509 0.524509
0.546132 0.546132 0.546132
0.568013 0.568013 0.568013
0.589374 0.589374 0.589374
0.610364 0.610364 0.610364
0.631827 0.631827 0.631827
0.653131 0.653131 0.653131
0.674148 0.674148 0.674148
0.695256 0.695256 0.695256
0.716077 0.716077 0.716077
0.735681 0.735681 0.735681
0.756959 0.756959 0.756959
0.777015 0.777015 0.777015
0.797909 0.797909 0.797909
0.817018 0.817018 0.817018
0.835896 0.835896 0.835896
0.566934 0.566934 0.566934
0.588502 0.588502 0.588502
0.609925 0.609925 0.609925
0.631351 0.631351 0.631351
0.652190 0.652190 0.652190
0.673348 0.673348 0.673348
0.694385 0.694385 0.694385
0.715144 0.715144 0.715144
0.735671 0.735671 0.735671
0.756148 0.756148 0.756148
0.775775 0.775775 0.775775
0.796752 0.796752 0.796752
0.815918 0.815918 0.815918
0.836352 0.836352 0.836352
0.855040 0.855040 0.855040
0.873478 0.873478 0.873478
0.608028 0.608028 0.608028
0.629377 0.629377 0.629377
0.650906 0.650906 0.650906
0.670800 0.670800 0.670800
0.692438 0.692438 0.692438
0.713246 0.713246 0.713246
0.733902 0.733902 0.733902
0.754423 0.754423 0.754423
0.774801 0.774801 0.774801
0.794826 0.794826 0.794826
0.813804 0.813804 0.813804
0.834383 0.834383 0.834383
0.853133 0.853133 0.853133
0.872445 0.872445 0.872445
0.891010 0.891010 0.891010
0.908914 0.908914 0.908914
0.006034 0.006034 0.006034
0.023424 0.023424 0.023424
0.042246 0.042246 0.042246
0.060428 0.060428 0.060428
0.080666 0.080666 0.080666
0.100593 0.100593 0.100593
0.120930 0.120930 0.120930
0.141237 0.141237 0.141237
0.161694 0.161694 0.161694
0.182270 0.182270 0.182270
0.202129 0.202129 0.202129
0.223903 0.223903 0.223903
0.244304 0.244304 0.244304
0.266193 0.266193 0.266193
0.286372 0.286372 0.286372
0.306905 0.306905 0.306905
0.041326 0.041326 0.041326
0.060514 0.060514 0.060514
0.080301 0.080301 0.080301
0.100213 0.100213 0.100213
0.119996 0.119996 0.119996
0.140360 0.140360 0.140360
0.160951 0.160951 0.160951
0.181503 0.181503 0.181503
0.202152 0.202152 0.202152
0.222951 0.222951 0.222951
0.242850 0.242850 0.242850
0.264833 0.264833 0.264833
0.285410 0.285410 0.285410
0.307369 0.307369 0.307369
0.327698 0.327698 0.327698
0.348461 0.348461 0.348461
0.079409 0.079409 0.079409
0.099324 0.099324 0.099324
0.119619 0.119619 0.119619
0.139949 0.139949 0.139949
0.159985 0.159985 0.159985
0.180582 0.180582 0.180582
0.201360 0.201360 0.201360
0.222158 0.222158 0.222158
0.243012 0.243012 0.243012
0.263881 0.263881 0.263881
0.284046 0.284046 0.284046
0.306075 0.306075 0.306075
0.326810 0.326810 0.326810
0.348927 0.348927 0.348927
0.369262 0.369262 0.369262
0.390290 0.390290 0.390290
0.118723 0.118723 0.118723
0.139029 0.139029 0.139029
0.159640 0.159640 0.159640
0.180200 0.180200 0.180200
0.200512 0.200512 0.200512
0.222182 0.222182 0.222182
0.242211 0.242211 0.242211
0.263047 0.263047 0.263047
0.284049 0.284049 0.284049
0.305068 0.305068 0.305068
0.326420 0.326420 0.326420
0.347642 0.347642 0.347642
0.368414 0.368414 0.368414
0.389640 0.389640 0.389640
0.411317 0.411317 0.411317
0.432240 0.432240 0.432240
0.158660 0.158660 0.158660
0.179188 0.179188 0.179188
0.199039 0.199039 0.199039
0.220834 0.220834 0.220834
0.241259 0.241259 0.241259
0.263193 0.263193 0.263193
0.283296 0.283296 0.283296
0.304349 0.304349 0.304349
0.325443 0.325443 0.325443
0.346612 0.346612 0.346612
0.368017 0.368017 0.368017
0.389311 0.389311 0.389311
0.410306 0.410306 0.410306
0.431639 0.431639 0.431639
0.453416 0.453416 0.453416
0.474372 0.474372 0.474372
0.199124 0.199124 0.199124
0.219842 0.219842 0.219842
0.239816 0.239816 0.239816
0.261746 0.261746 0.261746
0.282304 0.282304 0.282304
0.304349 0.304349 0.304349
0.324643 0.324643 0.324643
0.345817 0.345817 0.345817
0.366942 0.366942 0.366942
0.388394 0.388394 0.388394
0.409888 0.409888 0.409888
0.431358 0.431358 0.431358
0.452408 0.452408 0.452408
0.473921 0.473921 0.473921
0.495828 0.495828 0.495828
0.516959 0.516959 0.516959
0.239956 0.239956 0.239956
0.260807 0.260807 0.260807
0.280913 0.280913 0.280913
0.303019 0.303019 0.303019
0.323713 0.323713 0.323713
0.345889 0.345889 0.345889
0.366330 0.366330 0.366330
0.387592 0.387592 0.387592
0.408935 0.408935 0.408935
0.430403 0.430403 0.430403
0.452154 0.452154 0.452154
0.473693 0.473693 0.473693
0.495872 0.495872 0.495872
0.516403 0.516403 0.516403
0.538418 0.538418 0.538418
0.559437 0.559437 0.559437
0.281046 0.281046 0.281046
0.301972 0.301972 0.301972
0.323269 0.323269 0.323269
0.344395 0.344395 0.344395
0.365187 0.365187 0.365187
0.386708 0.386708 0.386708
0.408100 0.408100 0.408100
0.429629 0.429629 0.429629
0.451154 0.451154 0.451154
0.472676 0.472676 0.472676
0.494449 0.494449 0.494449
0.516186 0.516186 0.516186
0.538484 0.538484 0.538484
0.558928 0.558928 0.558928
0.580661 0.580661 0.580661
0.601670 0.601670 0.601670
0.322293 0.322293 0.322293
0.343471 0.343471 0.343471
0.364951 0.364951 0.364951
0.386169 0.386169 0.386169
0.407186 0.407186 0.407186
0.428538 0.428538 0.428538
0.450409 0.450409 0.450409
0.471701 0.471701 0.471701
0.493459 0.493459 0.493459
0.515071 0.515071 0.515071
0.536947 0.536947 0.536947
0.558562 0.558562 0.558562
0.580845 0.580845 0.580845
0.601162 0.601162 0.601162
0.622736 0.622736 0.622736
0.643431 0.643431 0.643431
0.363865 0.363865 0.363865
0.385154 0.385154 0.385154
0.406797 0.406797 0.406797
0.428063 0.428063 0.428063
0.449268 0.449268 0.449268
0.470869 0.470869 0.470869
0.492686 0.492686 0.492686
0.514366 0.514366 0.514366
0.536024 0.536024 0.536024
0.557607 0.557607 0.557607
0.579343 0.579343 0.579343
0.600751 0.600751 0.600751
0.621570 0.621570 0.621570
0.642867 0.642867 0.642867
0.664261 0.664261 0.664261
0.684795 0.684795 0.684795
0.405765 0.405765 0.405765
0.427248 0.427248 0.427248
0.448965 0.448965 0.448965
0.470533 0.470533 0.470533
0.492692 0.492692 0.492692
0.513368 0.513368 0.513368
0.535218 0.535218 0.535218
0.556764 0.556764 0.556764
0.578358 0.578358 0.578358
0.599818 0.599818 0.599818
0.621313 0.621313 0.621313
0.641631 0.641631 0.641631
0.663157 0.663157 0.663157
0.684179 0.684179 0.684179
0.705394 0.705394 0.705394
0.725585 0.725585 0.725585
0.447887 0.447887 0.447887
0.469388 0.469388 0.469388
0.491334 0.491334 0.491334
0.512935 0.512935 0.512935
0.535338 0.535338 0.535338
0.555820 0.555820 0.555820
0.577509 0.577509 0.577509
0.598994 0.598994 0.598994
0.620314 0.620314 0.620314
0.641761 0.641761 0.641761
0.662840 0.662840 0.662840
0.682849 0.682849 0.682849
0.704373 0.704373 0.704373
0.724870 0.724870 0.724870
0.745850 0.745850 0.745850
0.765861 0.765861 0.765861
0.490179 0.490179 0.490179
0.511930 0.511930 0.511930
0.533854 0.533854 0.533854
0.555320 0.555320 0.555320
0.577536 0.577536 0.577536
0.597959 0.597959 0.597959
0.619524 0.619524 0.619524
0.640750 0.640750 0.640750
0.662008 0.662008 0.662008
0.682986 0.682986 0.682986
0.704293 0.704293 0.704293
0.724737 0.724737 0.724737
0.744785 0.744785 0.744785
0.765062 0.765062 0.765062
0.785693 0.785693 0.785693
0.805044 0.805044 0.805044
0.532838 0.532838 0.532838
0.554442 0.554442 0.554442
0.576072 0.576072 0.576072
0.596564 0.596564 0.596564
0.618607 0.618607 0.618607
0.639746 0.639746 0.639746
0.661149 0.661149 0.661149
0.682083 0.682083 0.682083
0.703049 0.703049 0.703049
0.723949 0.723949 0.723949
0.744640 0.744640 0.744640
0.764993 0.764993 0.764993
0.784851 0.784851 0.784851
0.804365 0.804365 0.804365
0.824792 0.824792 0.824792
0.843363 0.843363 0.843363
0.575224 0.575224 0.575224
0.596631 0.596631 0.596631
0.618248 0.618248 0.618248
0.638466 0.638466 0.638466
0.660301 0.660301 0.660301
0.681209 0.681209 0.681209
0.702397 0.702397 0.702397
0.723003 0.723003 0.723003
0.743578 0.743578 0.743578
0.764173 0.764173 0.764173
0.784311 0.784311 0.784311
0.804157 0.804157 0.804157
0.823579 0.823579 0.823579
0.842869 0.842869 0.842869
0.862356 0.862356 0.862356
0.880809 0.880809 0.880809
0.616211 0.616211 0.616211
0.637452 0.637452 0.637452
0.658839 0.658839 0.658839
0.679758 0.679758 0.679758
0.701378 0.701378 0.701378
0.721027 0.721027 0.721027
0.741699 0.741699 0.741699
0.762186 0.762186 0.762186
0.782506 0.782506 0.782506
0.802458 0.802458 0.802458
0.822181 0.822181 0.822181
0.840899 0.840899 0.840899
0.860612 0.860612 0.860612
0.879427 0.879427 0.879427
0.898142 0.898142 0.898142
0.915576 0.915576 0.915576
0.012462 0.012462 0.012462
0.030447 0.030447 0.030447
0.049462 0.049462 0.049462
0.068854 0.068854 0.068854
0.088289 0.088289 0.088289
0.108254 0.108254 0.108254
0.128703 0.128703 0.128703
0.149023 0.149023 0.149023
0.169520 0.169520 0.169520
0.190115 0.190115 0.190115
0.210986 0.210986 0.210986
0.231799 0.231799 0.231799
0.252249 0.252249 0.252249
0.273103 0.273103 0.273103
0.294411 0.294411 0.294411
0.314965 0.314965 0.314965
0.048608 0.048608 0.048608
0.067968 0.067968 0.067968
0.087888 0.087888 0.087888
0.106916 0.106916 0.106916
0.127716 0.127716 0.127716
0.148085 0.148085 0.148085
0.168789 0.168789 0.168789
0.189338 0.189338 0.189338
0.210035 0.210035 0.210035
0.230801 0.230801 0.230801
0.251842 0.251842 0.251842
0.272765 0.272765 0.272765
0.293424 0.293424 0.293424
0.314421 0.314421 0.314421
0.335817 0.335817 0.335817
0.356565 0.356565 0.356565
0.087005 0.087005 0.087005
0.106908 0.106908 0.106908
0.127389 0.127389 0.127389
0.146682 0.146682 0.146682
0.167835 0.167835 0.167835
0.188429 0.188429 0.188429
0.209282 0.209282 0.209282
0.230092 0.230092 0.230092
0.250923 0.250923 0.250923
0.271842 0.271842 0.271842
0.293025 0.293025 0.293025
0.314117 0.314117 0.314117
0.334914 0.334914 0.334914
0.357049 0.357049 0.357049
0.377545 0.377545 0.377545
0.398413 0.398413 0.398413
0.126416 0.126416 0.126416
0.146749 0.146749 0.146749
0.167467 0.167467 0.167467
0.187025 0.187025 0.187025
0.208321 0.208321 0.208321
0.229114 0.229114 0.229114
0.250149 0.250149 0.250149
0.271077 0.271077 0.271077
0.292062 0.292062 0.292062
0.313139 0.313139 0.313139
0.334417 0.334417 0.334417
0.355630 0.355630 0.355630
0.376534 0.376534 0.376534
0.398745 0.398745 0.398745
0.419490 0.419490 0.419490
0.440374 0.440374 0.440374
0.166511 0.166511 0.166511
0.187148 0.187148 0.187148
0.207960 0.207960 0.207960
0.228748 0.228748 0.228748
0.249183 0.249183 0.249183
0.270069 0.270069 0.270069
0.291284 0.291284 0.291284
0.312411 0.312411 0.312411
0.333577 0.333577 0.333577
0.354683 0.354683 0.354683
0.375138 0.375138 0.375138
0.397432 0.397432 0.397432
0.418482 0.418482 0.418482
0.440964 0.440964 0.440964
0.461650 0.461650 0.461650
0.482714 0.482714 0.482714
0.207077 0.207077 0.207077
0.227825 0.227825 0.227825
0.248888 0.248888 0.248888
0.269756 0.269756 0.269756
0.290314 0.290314 0.290314
0.311307 0.311307 0.311307
0.332660 0.332660 0.332660
0.353881 0.353881 0.353881
0.375294 0.375294 0.375294
0.396415 0.396415 0.396415
0.417115 0.417115 0.417115
0.439569 0.439569 0.439569
0.460695 0.460695 0.460695
0.483211 0.483211 0.483211
0.504178 0.504178 0.504178
0.525295 0.525295 0.525295
0.247855 0.247855 0.247855
0.268763 0.268763 0.268763
0.289949 0.289949 0.289949
0.310997 0.310997 0.310997
0.331775 0.331775 0.331775
0.352954 0.352954 0.352954
0.374410 0.374410 0.374410
0.395752 0.395752 0.395752
0.417149 0.417149 0.417149
0.438683 0.438683 0.438683
0.459134 0.459134 0.459134
0.481937 0.481937 0.481937
0.503092 0.503092 0.503092
0.525741 0.525741 0.525741
0.546666 0.546666 0.546666
0.567625 0.567625 0.567625
0.288971 0.288971 0.288971
0.310045 0.310045 0.310045
0.331312 0.331312 0.331312
0.352540 0.352540 0.352540
0.373416 0.373416 0.373416
0.395785 0.395785 0.395785
0.416325 0.416325 0.416325
0.437793 0.437793 0.437793
0.459341 0.459341 0.459341
0.480785 0.480785 0.480785
0.502757 0.502757 0.502757
0.524292 0.524292 0.524292
0.545628 0.545628 0.545628
0.568162 0.568162 0.568162
0.588930 0.588930 0.588930
0.609706 0.609706 0.609706
0.330379 0.330379 0.330379
0.351562 0.351562 0.351562
0.371972 0.371972 0.371972
0.394385 0.394385 0.394385
0.415415 0.415415 0.415415
0.437851 0.437851 0.437851
0.458461 0.458461 0.458461
0.480035 0.480035 0.480035
0.501681 0.501681 0.501681
0.523415 0.523415 0.523415
0.545269 0.545269 0.545269
0.566826 0.566826 0.566826
0.587884 0.587884 0.587884
0.609207 0.609207 0.609207
0.630876 0.630876 0.630876
0.651526 0.651526 0.651526
0.371990 0.371990 0.371990
0.393299 0.393299 0.393299
0.413859 0.413859 0.413859
0.436454 0.436454 0.436454
0.457485 0.457485 0.457485
0.480237 0.480237 0.480237
0.500915 0.500915 0.500915
0.522593 0.522593 0.522593
0.544217 0.544217 0.544217
0.565826 0.565826 0.565826
0.587551 0.587551 0.587551
0.608867 0.608867 0.608867
0.630943 0.630943 0.630943
0.651043 0.651043 0.651043
0.672227 0.672227 0.672227
0.692836 0.692836 0.692836
0.413947 0.413947 0.413947
0.435384 0.435384 0.435384
0.456065 0.456065 0.456065
0.478713 0.478713 0.478713
0.499918 0.499918 0.499918
0.521601 0.521601 0.521601
0.543450 0.543450 0.543450
0.565034 0.565034 0.565034
0.586538 0.586538 0.586538
0.607915 0.607915 0.607915
0.629467 0.629467 0.629467
0.650827 0.650827 0.650827
0.672313 0.672313 0.672313
0.692306 0.692306 0.692306
0.713269 0.713269 0.713269
0.733384 0.733384 0.733384
0.456181 0.456181 0.456181
0.477627 0.477627 0.477627
0.499491 0.499491 0.499491
0.521100 0.521100 0.521100
0.542498 0.542498 0.542498
0.564056 0.564056 0.564056
0.585732 0.585732 0.585732
0.607071 0.607071 0.607071
0.628411 0.628411 0.628411
0.649653 0.649653 0.649653
0.670986 0.670986 0.670986
0.691794 0.691794 0.691794
0.713270 0.713270 0.713270
0.733059 0.733059 0.733059
0.753592 0.753592 0.753592
0.773535 0.773535 0.773535
0.498581 0.498581 0.498581
0.520299 0.520299 0.520299
0.542109 0.542109 0.542109
0.563676 0.563676 0.563676
0.584757 0.584757 0.584757
0.606142 0.606142 0.606142
0.627677 0.627677 0.627677
0.648964 0.648964 0.648964
0.670067 0.670067 0.670067
0.690964 0.690964 0.690964
0.712179 0.712179 0.712179
0.732757 0.732757 0.732757
0.753817 0.753817 0.753817
0.772720 0.772720 0.772720
0.793189 0.793189 0.793189
0.812355 0.812355 0.812355
0.541051 0.541051 0.541051
0.562688 0.562688 0.562688
0.584308 0.584308 0.584308
0.605838 0.605838 0.605838
0.626881 0.626881 0.626881
0.648030 0.648030 0.648030
0.669251 0.669251 0.669251
0.690352 0.690352 0.690352
0.711120 0.711120 0.711120
0.731563 0.731563 0.731563
0.752380 0.752380 0.752380
0.771704 0.771704 0.771704
0.792353 0.792353 0.792353
0.812009 0.812009 0.812009
0.831948 0.831948 0.831948
0.850760 0.850760 0.850760
0.583315 0.583315 0.583315
0.604808 0.604808 0.604808
0.626246 0.626246 0.626246
0.647583 0.647583 0.647583
0.669370 0.669370 0.669370
0.689391 0.689391 0.689391
0.710105 0.710105 0.710105
0.731032 0.731032 0.731032
0.751312 0.751312 0.751312
0.771760 0.771760 0.771760
0.792058 0.792058 0.792058
0.810868 0.810868 0.810868
0.830948 0.830948 0.830948
0.850088 0.850088 0.850088
0.869564 0.869564 0.869564
0.887752 0.887752 0.887752
0.624336 0.624336 0.624336
0.645595 0.645595 0.645595
0.666777 0.666777 0.666777
0.687971 0.687971 0.687971
0.708353 0.708353 0.708353
0.729069 0.729069 0.729069
0.749824 0.749824 0.749824
0.770006 0.770006 0.770006
0.790135 0.790135 0.790135
0.809819 0.809819 0.809819
0.829786 0.829786 0.829786
0.849130 0.849130 0.849130
0.868515 0.868515 0.868515
0.886310 0.886310 0.886310
0.905017 0.905017 0.905017
0.921833 0.921833 0.921833
0.019209 0.019209 0.019209
0.037585 0.037585 0.037585
0.056836 0.056836 0.056836
0.076366 0.076366 0.076366
0.095889 0.095889 0.095889
0.115945 0.115945 0.115945
0.136448 0.136448 0.136448
0.156824 0.156824 0.156824
0.177343 0.177343 0.177343
0.198003 0.198003 0.198003
0.218939 0.218939 0.218939
0.238708 0.238708 0.238708
0.260268 0.260268 0.260268
0.281122 0.281122 0.281122
0.302426 0.302426 0.302426
0.323061 0.323061 0.323061
0.055896 0.055896 0.055896
0.075426 0.075426 0.075426
0.095441 0.095441 0.095441
0.115536 0.115536 0.115536
0.136449 0.136449 0.136449
0.155923 0.155923 0.155923
0.176608 0.176608 0.176608
0.197241 0.197241 0.197241
0.218049 0.218049 0.218049
0.238785 0.238785 0.238785
0.259875 0.259875 0.259875
0.279766 0.279766 0.279766
0.301378 0.301378 0.301378
0.322486 0.322486 0.322486
0.343844 0.343844 0.343844
0.364663 0.364663 0.364663
0.094568 0.094568 0.094568
0.114641 0.114641 0.114641
0.135104 0.135104 0.135104
0.155512 0.155512 0.155512
0.176648 0.176648 0.176648
0.196321 0.196321 0.196321
0.217146 0.217146 0.217146
0.238002 0.238002 0.238002
0.258896 0.258896 0.258896
0.279872 0.279872 0.279872
0.301077 0.301077 0.301077
0.321118 0.321118 0.321118
0.342910 0.342910 0.342910
0.364050 0.364050 0.364050
0.385507 0.385507 0.385507
0.406456 0.406456 0.406456
0.134192 0.134192 0.134192
0.154599 0.154599 0.154599
0.175295 0.175295 0.175295
0.195972 0.195972 0.195972
0.217305 0.217305 0.217305
0.237077 0.237077 0.237077
0.258098 0.258098 0.258098
0.279076 0.279076 0.279076
0.300082 0.300082 0.300082
0.321108 0.321108 0.321108
0.342515 0.342515 0.342515
0.362745 0.362745 0.362745
0.384564 0.384564 0.384564
0.405945 0.405945 0.405945
0.427621 0.427621 0.427621
0.448713 0.448713 0.448713
0.174312 0.174312 0.174312
0.194909 0.194909 0.194909
0.215891 0.215891 0.215891
0.236655 0.236655 0.236655
0.257142 0.257142 0.257142
0.278079 0.278079 0.278079
0.299337 0.299337 0.299337
0.320376 0.320376 0.320376
0.341612 0.341612 0.341612
0.362831 0.362831 0.362831
0.384280 0.384280 0.384280
0.405708 0.405708 0.405708
0.426630 0.426630 0.426630
0.448064 0.448064 0.448064
0.469855 0.469855 0.469855
0.490958 0.490958 0.490958
0.214920 0.214920 0.214920
0.235723 0.235723 0.235723
0.256750 0.256750 0.256750
0.276732 0.276732 0.276732
0.298359 0.298359 0.298359
0.319527 0.319527 0.319527
0.340815 0.340815 0.340815
0.362120 0.362120 0.362120
0.383324 0.383324 0.383324
0.404745 0.404745 0.404745
0.426246 0.426246 0.426246
0.447762 0.447762 0.447762
0.468889 0.468889 0.468889
0.490406 0.490406 0.490406
0.512245 0.512245 0.512245
0.533502 0.533502 0.533502
0.255840 0.255840 0.255840
0.276731 0.276731 0.276731
0.297985 0.297985 0.297985
0.318023 0.318023 0.318023
0.339806 0.339806 0.339806
0.360990 0.360990 0.360990
0.382400 0.382400 0.382400
0.403918 0.403918 0.403918
0.425314 0.425314 0.425314
0.446828 0.446828 0.446828
0.468496 0.468496 0.468496
0.490096 0.490096 0.490096
0.511445 0.511445 0.511445
0.534045 0.534045 0.534045
0.554821 0.554821 0.554821
0.575879 0.575879 0.575879
0.297026 0.297026 0.297026
0.318085 0.318085 0.318085
0.339460 0.339460 0.339460
0.359665 0.359665 0.359665
0.381482 0.381482 0.381482
0.403026 0.403026 0.403026
0.424409 0.424409 0.424409
0.445973 0.445973 0.445973
