public/resources/lut/MV.cube
LUT_3D_SIZE 6
0.004218 0.005169 0.001380
0.182363 0.055202 0.032404
0.531214 0.164535 0.107635
0.825282 0.298915 0.191716
0.862498 0.327807 0.220559
0.876239 0.340837 0.233038
0.035175 0.159554 0.023023
0.145937 0.174425 0.035596
0.504201 0.229912 0.106065
0.826915 0.320196 0.189849
0.867265 0.349041 0.223391
0.880973 0.361179 0.236028
0.115822 0.460391 0.098565
0.120611 0.461707 0.101832
0.471622 0.501145 0.123405
0.853737 0.558212 0.222072
0.893985 0.565205 0.248904
0.903717 0.567570 0.263081
0.226340 0.794720 0.228180
0.235222 0.793452 0.232925
0.256031 0.794066 0.239227
0.846023 0.852290 0.238077
0.921072 0.815735 0.348761
0.930357 0.813126 0.359362
0.253955 0.879050 0.262021
0.263252 0.877906 0.267824
0.274711 0.876819 0.273343
0.687897 0.912606 0.288885
0.930572 0.921019 0.267433
0.942072 0.912943 0.273190
0.262012 0.896098 0.273160
0.271751 0.895059 0.278833
0.283327 0.894135 0.284238
0.640465 0.926408 0.309139
0.919155 0.937884 0.270342
0.942204 0.939120 0.274082
0.011626 0.013440 0.079481
0.178103 0.041763 0.087802
0.537471 0.167994 0.154971
0.827776 0.310179 0.237267
0.861162 0.342579 0.270631
0.874490 0.354969 0.285636
0.034368 0.147139 0.082640
0.130964 0.160879 0.107668
0.523930 0.214500 0.158484
0.829399 0.328213 0.237936
0.865159 0.361884 0.275522
0.877521 0.374371 0.291682
0.114855 0.456532 0.114781
0.119686 0.458601 0.116108
0.472782 0.502068 0.137015
0.858968 0.563789 0.256957
0.892088 0.570676 0.313204
0.900710 0.573636 0.331613
0.225906 0.792552 0.244095
0.235753 0.792894 0.246627
0.256179 0.794047 0.252587
0.845739 0.851810 0.255938
0.921120 0.815368 0.365077
0.930074 0.812439 0.373259
0.253990 0.877592 0.277842
0.264319 0.877920 0.281653
0.275828 0.877593 0.287450
0.688666 0.913067 0.307237
0.931364 0.921281 0.280982
0.942072 0.912880 0.287571
0.262023 0.894881 0.289363
0.272486 0.895710 0.292582
0.284555 0.894807 0.298285
0.640462 0.926333 0.330914
0.920174 0.938015 0.283516
0.943067 0.939149 0.287371
0.041407 0.057035 0.335304
0.094899 0.070246 0.340252
0.477967 0.107037 0.312123
0.821812 0.324643 0.410461
0.861859 0.359286 0.434221
0.874468 0.370385 0.440468
0.041884 0.086292 0.331872
0.079754 0.089968 0.340012
0.471157 0.128689 0.314158
0.826116 0.348060 0.418010
0.865529 0.382455 0.441723
0.878187 0.393699 0.448174
0.111076 0.428866 0.354336
0.115909 0.430523 0.355519
0.364338 0.449428 0.386468
0.853405 0.580691 0.503384
0.893956 0.595181 0.520931
0.905894 0.600755 0.525880
0.228257 0.788265 0.387560
0.237393 0.786962 0.387547
0.255164 0.788562 0.389645
0.845132 0.853970 0.457226
0.924619 0.822098 0.514299
0.934161 0.821010 0.520813
0.258520 0.879807 0.349369
0.268483 0.879314 0.352311
0.280881 0.880145 0.356808
0.678004 0.913635 0.411500
0.932545 0.923648 0.359995
0.943139 0.916813 0.371740
0.266803 0.897346 0.355148
0.277850 0.896769 0.358480
0.290003 0.897231 0.362916
0.640240 0.927383 0.424925
0.918428 0.939773 0.350318
0.942275 0.940786 0.357531
0.103675 0.094295 0.676046
0.119157 0.094551 0.675011
0.402777 0.110972 0.669106
0.888863 0.256764 0.667857
0.922328 0.288871 0.661235
0.932881 0.309997 0.662499
0.106708 0.109913 0.677338
0.124906 0.113901 0.677740
0.394723 0.127978 0.671400
0.888202 0.275946 0.668145
0.922168 0.312923 0.662698
0.932583 0.332207 0.663265
0.106174 0.245620 0.651663
0.120783 0.235431 0.657197
0.324103 0.234853 0.689860
0.878668 0.351517 0.671840
0.922340 0.380228 0.666321
0.932700 0.392140 0.665741
0.233466 0.766749 0.685165
0.244074 0.768195 0.685785
0.256929 0.768478 0.687166
0.828246 0.849980 0.771117
0.939699 0.867949 0.789885
0.949664 0.871267 0.793954
0.289705 0.893185 0.685434
0.303693 0.893319 0.684802
0.317746 0.894311 0.685568
0.660860 0.940145 0.751400
0.946250 0.955625 0.775524
0.966285 0.957451 0.780257
0.299405 0.909713 0.680189
0.313370 0.911167 0.680496
0.328396 0.911154 0.681311
0.637039 0.952965 0.748223
0.939461 0.969938 0.776158
0.966257 0.972001 0.771371
0.150862 0.139190 0.816737
0.165652 0.136396 0.814662
0.418586 0.171747 0.823577
0.892148 0.272953 0.831708
0.939066 0.310487 0.823281
0.950197 0.337936 0.820401
0.158477 0.162674 0.816253
0.174975 0.161271 0.815048
0.414332 0.191748 0.824600
0.890558 0.292126 0.832834
0.939359 0.332252 0.824426
0.951031 0.361051 0.822742
0.160075 0.186897 0.813935
0.181938 0.186277 0.814485
0.346205 0.200671 0.818867
0.875102 0.309036 0.833117
0.940756 0.354464 0.826320
0.951826 0.384269 0.824329
0.246952 0.723780 0.806135
0.258039 0.721081 0.802577
0.269914 0.719112 0.801011
0.808160 0.830356 0.867883
0.961611 0.848570 0.879016
0.973097 0.851296 0.880214
0.319474 0.906989 0.839456
0.330909 0.903663 0.835683
0.344692 0.902002 0.834532
0.663262 0.942951 0.880824
0.950926 0.959566 0.896078
0.974925 0.961720 0.896141
0.328915 0.927252 0.834399
0.341180 0.924283 0.830086
0.354755 0.923432 0.829288
0.661908 0.962023 0.875907
0.945791 0.980566 0.900066
0.977338 0.983459 0.899422
0.167831 0.150584 0.830773
0.183227 0.147412 0.830661
0.429795 0.185441 0.846480
0.875863 0.274913 0.851763
0.943093 0.335596 0.859555
0.954487 0.354846 0.855543
0.179746 0.178173 0.830598
0.194922 0.175659 0.830823
0.426022 0.204591 0.846475
0.874538 0.294293 0.852764
0.944006 0.358237 0.861684
0.955393 0.377736 0.857782
0.179943 0.197736 0.829398
0.205455 0.203371 0.831266
0.358375 0.213802 0.839227
0.859443 0.311558 0.852739
0.944147 0.380837 0.863498
0.955991 0.400434 0.859727
0.249164 0.708315 0.821818
0.263684 0.709491 0.822710
0.279172 0.709243 0.822692
0.810094 0.829690 0.885597
0.963444 0.849947 0.896625
0.975194 0.852298 0.898193
0.320804 0.885906 0.857976
0.335252 0.886411 0.858121
0.350407 0.886046 0.858496
0.672271 0.933837 0.901118
0.951982 0.961719 0.915339
0.977298 0.962519 0.916684
0.333497 0.921208 0.865396
0.347355 0.921856 0.865615
0.363823 0.922130 0.866421
0.682705 0.961350 0.903437
0.950600 0.982630 0.920147
0.978784 0.984441 0.921799
