public/resources/lut/MV.cube
LUT_3D_SIZE 16
0.004218 0.005169 0.001380
0.060781 0.021768 0.009949
0.118291 0.036011 0.019292
0.182363 0.055202 0.032404
0.264353 0.078623 0.048430
0.378481 0.110482 0.071278
0.531214 0.164535 0.107635
0.671871 0.225108 0.147301
0.770579 0.272135 0.176052
0.825282 0.298915 0.191716
0.852473 0.318076 0.208314
0.857898 0.323773 0.215587
0.862498 0.327807 0.220559
0.867408 0.331971 0.224790
0.871717 0.336449 0.228874
0.876239 0.340837 0.233038
0.014832 0.052634 0.008286
0.048255 0.059778 0.013264
0.110382 0.068411 0.022845
0.177100 0.079082 0.033677
0.260142 0.096988 0.048747
0.375208 0.120028 0.069240
0.529241 0.169934 0.106808
0.671895 0.231305 0.147042
0.770602 0.278669 0.175801
0.825882 0.305489 0.191749
0.853127 0.324599 0.208926
0.859047 0.329838 0.215566
0.863562 0.333843 0.220694
0.868532 0.338746 0.225831
0.873563 0.343797 0.230737
0.878252 0.348073 0.234990
0.024709 0.102016 0.015485
0.038202 0.105715 0.017882
0.095408 0.116013 0.025227
0.172640 0.117791 0.038812
0.257498 0.130362 0.052379
0.366355 0.150005 0.070183
0.522504 0.186294 0.105891
0.671153 0.238787 0.146582
0.770612 0.285289 0.175285
0.826238 0.312103 0.191301
0.853901 0.331834 0.210048
0.860883 0.337036 0.216752
0.865942 0.341111 0.222050
0.870280 0.345690 0.227160
0.875052 0.350633 0.232001
0.879633 0.355023 0.236292
0.035175 0.159554 0.023023
0.039137 0.161173 0.024965
0.059120 0.166596 0.027046
0.145937 0.174425 0.035596
0.251259 0.176544 0.058041
0.360306 0.194389 0.075127
0.504201 0.229912 0.106065
0.664560 0.275178 0.148169
0.770867 0.302794 0.175429
0.826915 0.320196 0.189849
0.855272 0.338639 0.209608
0.861271 0.343134 0.215981
0.867265 0.349041 0.223391
0.871647 0.352267 0.226897
0.876371 0.356833 0.231614
0.880973 0.361179 0.236028
0.053622 0.236052 0.036904
0.055284 0.236865 0.037956
0.059082 0.238362 0.039768
0.087133 0.246951 0.043552
0.213441 0.251108 0.053465
0.355619 0.258506 0.087366
0.493119 0.291975 0.114303
0.647193 0.335068 0.152234
0.769660 0.367685 0.180991
0.835940 0.377854 0.194850
0.862940 0.376822 0.214392
0.867711 0.372107 0.219650
0.871581 0.372941 0.225846
0.875859 0.374713 0.229882
0.880319 0.377577 0.233850
0.884660 0.380536 0.237933
0.081647 0.340401 0.062011
0.082730 0.341115 0.062858
0.084497 0.341484 0.063805
0.089545 0.343261 0.066547
0.125248 0.355770 0.072388
0.312275 0.364233 0.079985
0.501383 0.383109 0.134370
0.650409 0.418541 0.169451
0.775006 0.450685 0.194840
0.842385 0.463642 0.202714
0.874464 0.474101 0.223476
0.880587 0.473195 0.232583
0.884676 0.473234 0.239875
0.888555 0.475297 0.246669
0.892532 0.478040 0.252588
0.896306 0.480855 0.258621
0.115822 0.460391 0.098565
0.116686 0.460675 0.099359
0.118310 0.461388 0.100539
0.120611 0.461707 0.101832
0.125723 0.462209 0.104225
0.203832 0.495601 0.109123
0.471622 0.501145 0.123405
0.661471 0.527498 0.197164
0.784483 0.553428 0.219644
0.853737 0.558212 0.222072
0.885298 0.566330 0.239475
0.890527 0.565996 0.245191
0.893985 0.565205 0.248904
0.896831 0.565555 0.254079
0.900233 0.566546 0.258521
0.903717 0.567570 0.263081
0.153503 0.586487 0.144926
0.155027 0.586294 0.145985
0.157000 0.586495 0.147173
0.159715 0.586304 0.148666
0.162509 0.586181 0.149961
0.179583 0.592311 0.155923
0.321000 0.629726 0.147362
0.634299 0.641004 0.166764
0.786700 0.660257 0.243454
0.863528 0.656428 0.248616
0.897942 0.655170 0.262148
0.902541 0.653173 0.268435
0.905407 0.651900 0.273070
0.907764 0.651077 0.278035
0.910240 0.650382 0.282429
0.913029 0.650073 0.287450
0.192244 0.705831 0.192662
0.194398 0.705424 0.194061
0.196425 0.704874 0.195216
0.199025 0.704429 0.196500
0.202141 0.704151 0.198023
0.204556 0.702922 0.198710
0.269958 0.720515 0.215198
0.485238 0.744883 0.179018
0.769059 0.768832 0.199312
0.863022 0.754068 0.281096
0.902811 0.740277 0.304235
0.910939 0.736631 0.313411
0.913392 0.734668 0.315607
0.917079 0.733614 0.316935
0.919886 0.733121 0.319650
0.922836 0.731984 0.321804
0.226340 0.794720 0.228180
0.229062 0.794047 0.229680
0.231687 0.794038 0.231061
0.235222 0.793452 0.232925
0.237876 0.793398 0.234082
0.241427 0.792214 0.235510
0.256031 0.794066 0.239227
0.376832 0.822797 0.263675
0.640472 0.842853 0.209616
0.846023 0.852290 0.238077
0.904058 0.822793 0.315095
0.918278 0.817604 0.343472
0.921072 0.815735 0.348761
0.924383 0.815050 0.354505
0.927468 0.813959 0.357762
0.930357 0.813126 0.359362
0.245481 0.855916 0.250019
0.248289 0.855512 0.251881
0.251316 0.855168 0.253834
0.254292 0.853956 0.255560
0.257887 0.853379 0.257595
0.261460 0.853997 0.259548
0.265120 0.853404 0.260328
0.345479 0.864753 0.291145
0.501303 0.885740 0.296320
0.771026 0.897148 0.256943
0.891011 0.901558 0.257206
0.924229 0.883422 0.275980
0.930291 0.878994 0.282179
0.933447 0.876624 0.289920
0.936512 0.875049 0.297481
0.939451 0.873521 0.305007
0.251461 0.872957 0.258493
0.254433 0.872485 0.260349
0.257308 0.871874 0.262133
0.260577 0.871187 0.264112
0.264008 0.870770 0.266194
0.267552 0.871406 0.268204
0.271916 0.870913 0.269719
0.308566 0.874955 0.283833
0.460007 0.896715 0.325859
0.719992 0.909416 0.278248
0.855725 0.917837 0.257949
0.919863 0.919085 0.263804
0.930722 0.911907 0.268117
0.934472 0.908654 0.270067
0.938246 0.905843 0.271698
0.942070 0.902740 0.273166
0.253955 0.879050 0.262021
0.256931 0.878588 0.263909
0.259904 0.877822 0.265718
0.263252 0.877906 0.267824
0.267273 0.876901 0.270101
0.270886 0.876907 0.272066
0.274711 0.876819 0.273343
0.298518 0.878890 0.282422
0.447106 0.900873 0.331182
0.687897 0.912606 0.288885
0.838908 0.922245 0.260386
0.907562 0.923197 0.262979
0.930572 0.921019 0.267433
0.934844 0.918628 0.269020
0.938477 0.916041 0.271650
0.942072 0.912943 0.273190
0.256644 0.884991 0.265801
0.259654 0.884443 0.267617
0.262657 0.883841 0.269401
0.266012 0.883410 0.271333
0.269422 0.882817 0.273270
0.273284 0.882600 0.275375
0.277481 0.882852 0.276950
0.299687 0.884475 0.285383
0.444605 0.905447 0.335778
0.666922 0.917371 0.295937
0.828934 0.926542 0.263001
0.899930 0.928263 0.264507
0.928926 0.929221 0.267242
0.935556 0.927775 0.269147
0.938569 0.924926 0.271595
0.942110 0.922448 0.273294
0.259380 0.890703 0.269518
0.262366 0.890299 0.271370
0.265613 0.890167 0.273290
0.268870 0.888986 0.275008
0.272302 0.888580 0.276938
0.276177 0.888134 0.278989
0.280431 0.888646 0.280587
0.302079 0.890214 0.288759
0.445859 0.910719 0.340236
0.653232 0.922002 0.302089
0.822335 0.931783 0.263461
0.893459 0.932919 0.265045
0.923352 0.932944 0.268782
0.932805 0.934050 0.270599
0.938963 0.933537 0.271770
0.942246 0.931070 0.273407
0.262012 0.896098 0.273160
0.265082 0.895701 0.275036
0.268291 0.895006 0.276769
0.271751 0.895059 0.278833
0.275194 0.894858 0.280704
0.278620 0.893672 0.282351
0.283327 0.894135 0.284238
0.303947 0.895458 0.291955
0.446083 0.914936 0.343825
0.640465 0.926408 0.309139
0.814490 0.935758 0.265392
0.885933 0.937589 0.266269
0.919155 0.937884 0.270342
0.928104 0.938341 0.271697
0.935257 0.938841 0.272755
0.942204 0.939120 0.274082
0.006100 0.006319 0.021664
0.056593 0.014657 0.025531
0.119074 0.035604 0.033810
0.182378 0.055894 0.045869
0.265775 0.080277 0.062014
0.380745 0.111741 0.084228
0.532443 0.166428 0.121692
0.671937 0.226008 0.160424
0.772303 0.274019 0.189236
0.826070 0.300756 0.203843
0.852548 0.321675 0.220888
0.858067 0.326917 0.227159
0.862721 0.331464 0.232582
0.866754 0.334555 0.236150
0.871168 0.339128 0.240853
0.875852 0.343420 0.245304
0.014046 0.047579 0.023250
0.046066 0.051456 0.027654
0.110028 0.066184 0.038977
0.179277 0.079191 0.049866
0.265209 0.096321 0.063750
0.378622 0.121768 0.085913
0.530836 0.171443 0.120847
0.671856 0.231881 0.160069
0.772716 0.280181 0.189038
0.826846 0.307013 0.203904
0.853902 0.328891 0.222490
0.858641 0.333498 0.228083
0.863210 0.338647 0.234385
0.868432 0.341477 0.237501
0.872995 0.346155 0.242690
0.877413 0.350615 0.247499
0.024290 0.097719 0.026496
0.040223 0.100825 0.030513
0.089827 0.111778 0.038665
0.173113 0.115598 0.051766
0.259275 0.127426 0.065298
0.371411 0.148671 0.085760
0.527208 0.185080 0.120085
0.671855 0.238838 0.159446
0.772614 0.286551 0.188585
0.827415 0.313521 0.203600
0.854564 0.334443 0.222017
0.860298 0.340464 0.229563
0.865708 0.345137 0.235222
0.870299 0.350103 0.240940
0.874709 0.353416 0.244420
0.879027 0.357803 0.249200
0.034666 0.156349 0.028668
0.038979 0.157750 0.030379
0.062923 0.163405 0.037133
0.144103 0.173362 0.045689
0.252616 0.174143 0.068718
0.362682 0.193262 0.087834
0.510562 0.226038 0.119078
0.668498 0.273206 0.161155
0.772378 0.302014 0.188146
0.828004 0.321325 0.202616
0.855921 0.340879 0.221928
0.862267 0.347331 0.230077
0.867514 0.351953 0.235947
0.872269 0.356286 0.240712
0.876389 0.360375 0.245171
0.880953 0.364790 0.249842
0.053175 0.234242 0.039166
0.054991 0.235583 0.040150
0.058748 0.236515 0.041950
0.088210 0.245702 0.047927
0.210798 0.249203 0.057129
0.356664 0.256495 0.093754
0.496041 0.290766 0.121858
0.652125 0.335479 0.163424
0.773065 0.367904 0.193140
0.837933 0.378412 0.208935
0.864282 0.378347 0.228638
0.867588 0.374736 0.234362
0.871600 0.374050 0.238442
0.875985 0.377052 0.244377
0.880006 0.379786 0.248216
0.884120 0.382785 0.252475
0.081292 0.338986 0.065090
0.082571 0.340410 0.065871
0.084426 0.341132 0.066864
0.089373 0.342573 0.069486
0.126542 0.356357 0.076614
0.312282 0.363321 0.085189
0.502734 0.382966 0.138756
0.652620 0.418923 0.174261
0.777410 0.451262 0.200606
0.845259 0.465173 0.213380
0.876329 0.477610 0.242192
0.881931 0.476975 0.252791
0.885198 0.476772 0.260678
0.888811 0.478690 0.267627
0.892582 0.481770 0.274509
0.895905 0.485012 0.281574
0.115612 0.459414 0.102891
0.116577 0.460388 0.103293
0.118358 0.460416 0.104507
0.120490 0.461397 0.105763
0.126163 0.462659 0.108550
0.204644 0.495576 0.114486
0.472339 0.501652 0.127233
0.662993 0.528359 0.201768
0.786402 0.554599 0.224463
0.854970 0.559509 0.227806
0.885630 0.566438 0.245676
0.890343 0.566436 0.252565
0.893210 0.565168 0.257167
0.896618 0.566360 0.264520
0.899446 0.566577 0.268565
0.902992 0.567778 0.273603
0.153118 0.585395 0.150274
0.154979 0.586279 0.150794
0.157164 0.586413 0.152067
0.159683 0.586289 0.153375
0.162136 0.586100 0.154438
0.179776 0.593329 0.160892
0.321785 0.630731 0.151590
0.635266 0.642906 0.170306
0.788605 0.661546 0.248054
0.863799 0.656787 0.253614
0.895455 0.654057 0.267952
0.902012 0.653114 0.275105
0.904858 0.651770 0.279143
0.906791 0.650630 0.283535
0.909871 0.650256 0.288585
0.912365 0.649790 0.293930
0.191978 0.704799 0.197780
0.194318 0.705053 0.198453
0.196812 0.704876 0.199907
0.199025 0.704166 0.200914
0.202081 0.704085 0.202389
0.204924 0.703983 0.203515
0.269861 0.720289 0.219662
0.486646 0.745237 0.182888
0.770853 0.770365 0.202982
0.862966 0.754067 0.286760
0.902962 0.740647 0.310237
0.910657 0.736425 0.317050
0.913355 0.734538 0.320403
0.916661 0.733730 0.322617
0.919547 0.732821 0.324477
0.922839 0.731993 0.326726
0.226277 0.794055 0.233363
0.229237 0.794341 0.234166
0.231720 0.794061 0.235520
0.234682 0.792626 0.236815
0.237958 0.793463 0.238456
0.241560 0.791983 0.239942
0.256114 0.794241 0.243541
0.377987 0.822701 0.269950
0.642506 0.843445 0.213690
0.845742 0.851984 0.243771
0.904175 0.822939 0.320975
0.918133 0.817296 0.347980
0.920838 0.815889 0.355068
0.923734 0.814553 0.359980
0.927167 0.813951 0.362550
0.930308 0.813277 0.364057
0.245277 0.855173 0.254866
0.248520 0.855447 0.256295
0.251312 0.855198 0.258050
0.254699 0.854771 0.260152
0.257690 0.854160 0.261794
0.260972 0.853648 0.263414
0.265332 0.853422 0.264807
0.345713 0.864778 0.295602
0.502374 0.885395 0.302099
0.771375 0.896708 0.262834
0.890310 0.900686 0.260880
0.924379 0.883622 0.281638
0.929807 0.878428 0.288518
0.933188 0.876542 0.295168
0.936353 0.875095 0.302838
0.939440 0.873624 0.310499
0.251454 0.872459 0.263670
0.254746 0.872587 0.264889
0.257443 0.871795 0.266551
0.261087 0.872220 0.268867
0.264973 0.871745 0.271234
0.268581 0.870390 0.273057
0.272230 0.870993 0.274256
0.308770 0.875092 0.288281
0.461549 0.896626 0.331993
0.720320 0.909232 0.283976
0.855592 0.917805 0.262819
0.919934 0.918918 0.267482
0.930676 0.911702 0.272682
0.934476 0.908466 0.274153
0.938470 0.905726 0.276467
0.942203 0.902742 0.277936
0.253999 0.878677 0.267285
0.257285 0.878906 0.268503
0.260555 0.877949 0.270433
0.263511 0.877586 0.272229
0.267138 0.877692 0.274393
0.271055 0.876905 0.276482
0.274987 0.877016 0.277910
0.298819 0.878996 0.286960
0.448854 0.900882 0.337080
0.687782 0.912629 0.294896
0.838606 0.922277 0.265103
0.907717 0.923092 0.267244
0.931317 0.921302 0.271981
0.935152 0.918535 0.274133
0.938464 0.915622 0.276300
0.942221 0.912814 0.277843
0.256636 0.884435 0.270987
0.260004 0.884928 0.272149
0.262785 0.884124 0.273751
0.266924 0.883590 0.276241
0.270195 0.882846 0.278079
0.273587 0.882836 0.279862
0.277768 0.882854 0.281419
0.300032 0.884869 0.289896
0.446471 0.905920 0.341639
0.666801 0.917342 0.302385
0.829379 0.927361 0.268487
0.899951 0.928360 0.267884
0.929204 0.929136 0.271696
0.935255 0.927169 0.274090
0.938846 0.924606 0.276203
0.942154 0.922173 0.277852
0.259339 0.890257 0.274746
0.262742 0.890375 0.275834
0.265584 0.889558 0.277498
0.269373 0.890064 0.279774
0.273144 0.888793 0.281812
0.277115 0.889017 0.284007
0.280727 0.888778 0.285122
0.302325 0.890287 0.293209
0.447856 0.910781 0.346218
0.653242 0.922069 0.308974
0.821886 0.931557 0.268741
0.893724 0.932914 0.269227
0.923672 0.933059 0.273094
0.933408 0.934073 0.274318
0.939027 0.933296 0.276094
0.942674 0.930746 0.277775
0.261944 0.895676 0.278405
0.265424 0.895986 0.279604
0.268431 0.895809 0.281285
0.272121 0.895283 0.283405
0.275383 0.894328 0.285051
0.279539 0.894371 0.287353
0.283635 0.894247 0.288697
0.304236 0.895660 0.296403
0.448128 0.915150 0.349835
0.640867 0.926300 0.316477
0.814295 0.936071 0.270269
0.886130 0.937541 0.270241
0.919245 0.937876 0.274679
0.928586 0.938268 0.276072
0.935496 0.938916 0.277173
0.942351 0.939067 0.278474
0.008569 0.009007 0.046098
0.048912 0.013057 0.049027
0.116351 0.027577 0.052637
0.181488 0.053178 0.062160
0.265976 0.076565 0.076255
0.383121 0.113131 0.099607
0.535733 0.168324 0.136918
0.674199 0.228461 0.175766
0.773532 0.276619 0.203168
0.826911 0.303505 0.217394
0.853481 0.327315 0.236792
0.858054 0.331309 0.241868
0.862699 0.335476 0.247182
0.867014 0.340827 0.253266
0.871319 0.343688 0.256477
0.875391 0.347605 0.260696
0.013976 0.039576 0.047334
0.040566 0.041116 0.049492
0.105397 0.052279 0.055131
0.178420 0.072112 0.064927
0.263503 0.090161 0.078239
0.380455 0.120376 0.100537
0.533399 0.173649 0.137177
0.672674 0.233040 0.175125
0.773583 0.282313 0.203171
0.827603 0.309792 0.217697
0.854814 0.332252 0.235905
0.859496 0.337961 0.243093
0.863259 0.341703 0.248233
0.868387 0.346337 0.253755
0.872461 0.350437 0.258398
0.876617 0.354408 0.262980
0.024083 0.092210 0.048913
0.038202 0.094335 0.051321
0.086446 0.100216 0.058520
0.171739 0.112202 0.070541
0.263345 0.125094 0.084006
0.374705 0.144497 0.103241
0.529915 0.183358 0.137059
0.671236 0.238332 0.174370
0.773711 0.288166 0.202799
0.828253 0.316187 0.217677
0.854482 0.339075 0.237327
0.860366 0.344020 0.243903
0.865464 0.349038 0.250514
0.869081 0.353304 0.255863
0.873901 0.357617 0.260649
0.878040 0.361360 0.265092
0.034540 0.153922 0.049037
0.039315 0.155591 0.050588
0.063682 0.160988 0.056549
0.138613 0.173454 0.068640
0.254142 0.172498 0.087458
0.366268 0.189888 0.104413
0.517990 0.221157 0.136356
0.670867 0.268761 0.176098
0.773576 0.300816 0.202421
0.828796 0.323371 0.216940
0.856839 0.345678 0.237540
0.862417 0.351757 0.245720
0.867233 0.355309 0.250804
0.871507 0.360475 0.257053
0.875586 0.364434 0.261800
0.879581 0.368209 0.266273
0.052499 0.231171 0.052826
0.054484 0.232543 0.053789
0.059240 0.234533 0.055654
0.092764 0.243767 0.064696
0.211538 0.249406 0.074582
0.360008 0.253321 0.108447
0.503379 0.288128 0.138123
0.659188 0.333513 0.179660
0.776846 0.367690 0.208463
0.839019 0.378634 0.225065
0.863260 0.379445 0.244313
0.868584 0.376842 0.249552
0.870746 0.377182 0.255765
0.875061 0.379257 0.260491
0.879019 0.382258 0.264833
0.883052 0.385205 0.269565
0.080792 0.337105 0.069379
0.082105 0.338648 0.070109
0.084243 0.340385 0.071097
0.088952 0.340781 0.073449
0.127250 0.354405 0.081784
0.312368 0.362745 0.089936
0.505116 0.382267 0.145950
0.657551 0.419929 0.184295
0.781471 0.452667 0.213267
0.849368 0.468388 0.232579
0.877507 0.480686 0.264394
0.882379 0.480476 0.276412
0.885675 0.480728 0.285251
0.889036 0.482712 0.292628
0.891806 0.485831 0.300254
0.895057 0.489046 0.307725
0.115361 0.458394 0.107903
0.116307 0.459222 0.108138
0.118082 0.460521 0.108868
0.120180 0.460350 0.109958
0.125703 0.462052 0.112560
0.203972 0.494123 0.118838
0.472743 0.502035 0.131172
0.664554 0.529056 0.206439
0.787983 0.555469 0.229143
0.856006 0.560462 0.234279
0.885675 0.567359 0.256540
0.889478 0.566832 0.265566
0.893529 0.566021 0.270848
0.895928 0.567099 0.279126
0.898696 0.567890 0.284967
0.901698 0.568975 0.290832
0.152804 0.584535 0.156152
0.154604 0.585325 0.156486
0.156768 0.585562 0.156942
0.159074 0.586281 0.158146
0.162382 0.586864 0.159789
0.179788 0.593105 0.166001
0.322444 0.631394 0.155870
0.636290 0.644716 0.174019
0.790238 0.662916 0.252847
0.863558 0.657154 0.258803
0.895913 0.654623 0.273556
0.900922 0.652384 0.280464
0.904082 0.651074 0.284421
0.906854 0.650253 0.288908
0.909028 0.649905 0.294858
0.911658 0.649461 0.300207
0.191731 0.704178 0.203111
0.194137 0.704284 0.203777
0.196784 0.705051 0.204585
0.198988 0.704321 0.205506
0.201952 0.704004 0.206939
0.204762 0.703293 0.208013
0.269686 0.720023 0.224192
0.486915 0.745447 0.186997
0.772860 0.771655 0.206978
0.862733 0.753896 0.293131
0.902960 0.740694 0.314804
0.910031 0.736273 0.322892
0.913416 0.734674 0.325387
0.915762 0.733201 0.327474
0.919163 0.732796 0.329433
0.922320 0.731949 0.331733
0.226119 0.793447 0.238696
0.229117 0.793667 0.239480
0.232267 0.794236 0.240393
0.235405 0.793632 0.241882
0.238056 0.793487 0.243027
0.241854 0.793492 0.244722
0.256194 0.794193 0.248082
0.378937 0.822228 0.276307
0.644085 0.843856 0.218250
0.845499 0.852067 0.249667
0.903910 0.822562 0.325726
0.918077 0.817032 0.353928
0.920805 0.815755 0.360586
0.923622 0.814546 0.365357
0.927134 0.813848 0.367224
0.930345 0.812884 0.368739
0.245223 0.854539 0.260031
0.248492 0.855159 0.261389
0.251478 0.855403 0.262546
0.255311 0.855097 0.264911
0.258527 0.854477 0.266735
0.261690 0.853761 0.268301
0.265628 0.853729 0.269387
0.345910 0.865251 0.300036
0.503709 0.885467 0.308136
0.771866 0.896647 0.268969
0.890815 0.900789 0.265479
0.924367 0.883591 0.286167
0.930307 0.878974 0.293122
0.932821 0.876023 0.301111
0.936390 0.875115 0.308341
0.939477 0.873615 0.316024
0.251465 0.871969 0.268685
0.254661 0.872253 0.269881
0.258161 0.872750 0.271501
0.261678 0.872227 0.273612
0.264762 0.871947 0.275498
0.268906 0.870898 0.277788
0.272550 0.871333 0.278945
0.309022 0.875132 0.292924
0.463025 0.896705 0.338040
0.721232 0.909366 0.289928
0.855769 0.917854 0.267153
0.920006 0.919066 0.271977
0.930806 0.911642 0.276673
0.934415 0.908270 0.278818
0.938264 0.905786 0.281162
0.942017 0.902683 0.282759
0.254058 0.878213 0.272618
0.257302 0.878389 0.273730
0.260837 0.878775 0.275121
0.263820 0.878279 0.276867
0.267930 0.877417 0.279252
0.271364 0.877204 0.281180
0.275414 0.877290 0.282599
0.299141 0.879195 0.291598
0.450544 0.901397 0.342958
0.688033 0.912722 0.300980
0.838733 0.922517 0.270593
0.908677 0.923570 0.271748
0.931512 0.921388 0.277227
0.935082 0.918590 0.278878
0.938780 0.915623 0.281053
0.942161 0.912661 0.282695
0.256624 0.884169 0.276328
0.259968 0.884388 0.277468
0.264005 0.884869 0.279091
0.267144 0.884357 0.280862
0.270211 0.883832 0.282585
0.274446 0.882799 0.284784
0.278247 0.883407 0.286234
0.300353 0.884807 0.294504
0.448392 0.905986 0.347653
0.666934 0.917540 0.308844
0.828854 0.926765 0.273411
0.900218 0.928247 0.271869
0.929570 0.929124 0.276828
0.935314 0.926797 0.279262
0.938972 0.924503 0.280876
0.942412 0.922221 0.282588
0.259307 0.889755 0.280169
0.262749 0.890021 0.281241
0.266352 0.890426 0.282419
0.269988 0.889985 0.284577
0.272563 0.889506 0.285993
0.276733 0.888735 0.288057
0.281232 0.888965 0.289844
0.302713 0.890516 0.297901
0.449903 0.911080 0.352206
0.653259 0.922015 0.315839
0.822099 0.931589 0.274999
0.893702 0.932909 0.273471
0.924304 0.933604 0.277643
0.933517 0.934152 0.278927
0.939233 0.933129 0.280598
0.942532 0.930674 0.282397
0.261960 0.895316 0.283768
0.265424 0.895615 0.284902
0.269011 0.895293 0.285960
0.272805 0.895649 0.288207
0.275876 0.895111 0.289857
0.279869 0.894648 0.291966
0.284042 0.894543 0.293471
0.304597 0.895806 0.301023
0.450285 0.915437 0.355778
0.640875 0.926275 0.323896
0.814341 0.936377 0.275963
0.886140 0.937492 0.274725
0.919557 0.937967 0.277817
0.928701 0.938379 0.280457
0.935770 0.938847 0.281510
0.942759 0.939131 0.282818
0.011626 0.013440 0.079481
0.037825 0.015602 0.082655
0.102780 0.021736 0.087715
0.178103 0.041763 0.087802
0.262434 0.074635 0.098018
0.380931 0.112645 0.119437
0.537471 0.167994 0.154971
0.676913 0.228538 0.192852
0.775396 0.281536 0.222127
0.827776 0.310179 0.237267
0.852748 0.333003 0.257488
0.858170 0.338272 0.264628
0.861162 0.342579 0.270631
0.866735 0.346234 0.275415
0.870572 0.350866 0.280897
0.874490 0.354969 0.285636
0.013603 0.029298 0.078523
0.034198 0.032127 0.081326
0.088943 0.032831 0.087663
0.172458 0.053230 0.087803
0.260970 0.084832 0.099469
0.379485 0.119143 0.120095
0.536122 0.173500 0.155367
0.675582 0.234518 0.193557
0.775935 0.287325 0.222252
0.828535 0.316082 0.237941
0.853891 0.339038 0.258503
0.859600 0.344818 0.266196
0.863551 0.348563 0.271681
0.867745 0.353190 0.277607
0.871623 0.357443 0.282815
0.875336 0.361415 0.287798
0.023266 0.080310 0.080825
0.033230 0.080279 0.082637
0.072142 0.078459 0.088736
0.162327 0.094391 0.094753
0.258509 0.114884 0.103856
0.374705 0.135503 0.121748
0.533584 0.180700 0.155789
0.674093 0.240567 0.194146
0.775932 0.292899 0.222203
0.829151 0.322049 0.238397
0.854571 0.345796 0.260253
0.859424 0.350845 0.267504
0.864576 0.355416 0.274103
0.868812 0.360600 0.280851
0.872356 0.363855 0.285208
0.876390 0.367887 0.290150
0.034368 0.147139 0.082640
0.039634 0.148734 0.084841
0.060435 0.154212 0.091004
0.130964 0.160879 0.107668
0.249707 0.169023 0.111559
0.369175 0.184681 0.128058
0.523930 0.214500 0.158484
0.670630 0.262098 0.195356
0.775290 0.301846 0.221739
0.829399 0.328213 0.237936
0.856191 0.351755 0.260635
0.861714 0.357633 0.268899
0.865159 0.361884 0.275522
0.869865 0.366327 0.281495
0.873720 0.370321 0.286674
0.877521 0.374371 0.291682
0.052181 0.228061 0.091214
0.054454 0.229522 0.092815
0.058626 0.231432 0.094877
0.090272 0.239681 0.102707
0.198402 0.253124 0.113899
0.364569 0.248939 0.132433
0.512203 0.280568 0.161959
0.665260 0.327412 0.201401
0.778822 0.365500 0.229435
0.838207 0.377275 0.246890
0.862797 0.382502 0.268480
0.866664 0.379863 0.273859
0.868887 0.380193 0.280013
0.873008 0.380778 0.283458
0.876757 0.384883 0.289211
0.880541 0.387994 0.294459
0.080351 0.334597 0.098222
0.081625 0.335956 0.098698
0.083630 0.336799 0.099229
0.088551 0.338092 0.100769
0.132096 0.351354 0.111185
0.307220 0.357201 0.111042
0.508748 0.377763 0.167987
0.666559 0.419935 0.208588
0.787268 0.454789 0.238774
0.852586 0.473315 0.265660
0.876379 0.486021 0.301248
0.880965 0.485058 0.310891
0.883718 0.485405 0.318056
0.887663 0.487179 0.323634
0.890559 0.489988 0.329892
0.893509 0.492881 0.336363
0.114855 0.456532 0.114781
0.115811 0.457607 0.114953
0.117257 0.457580 0.115219
0.119686 0.458601 0.116108
0.124975 0.461002 0.118569
0.204819 0.492263 0.127564
0.472782 0.502068 0.137015
0.667835 0.530484 0.215504
0.791642 0.557688 0.241784
0.858968 0.563789 0.256957
0.885913 0.570605 0.289737
0.889095 0.570664 0.304292
0.892088 0.570676 0.313204
0.894141 0.571193 0.320152
0.897894 0.572315 0.325442
0.900710 0.573636 0.331613
0.152429 0.583346 0.162344
0.154136 0.584062 0.162561
0.156237 0.585363 0.162999
0.158957 0.585078 0.163410
0.162053 0.585991 0.164937
0.179105 0.592554 0.170843
0.322674 0.631571 0.160529
0.637236 0.646285 0.177884
