public/resources/lut/WED.cube
LUT_3D_SIZE 6
0.000000 0.000000 0.000000
0.176012 0.005330 0.000367
0.462455 0.084559 0.038148
0.737531 0.183969 0.112171
0.813598 0.215709 0.139468
0.841219 0.227593 0.147487
0.000000 0.117531 0.026035
0.111327 0.120288 0.017631
0.469054 0.175660 0.039641
0.733232 0.199217 0.106149
0.810878 0.228195 0.135334
0.838601 0.239874 0.143522
0.032774 0.369310 0.111720
0.043974 0.368253 0.107961
0.443321 0.414723 0.109604
0.771881 0.448059 0.127272
0.854751 0.451759 0.141217
0.881660 0.455744 0.148549
0.128413 0.629972 0.213509
0.139909 0.630049 0.208669
0.160262 0.625248 0.198706
0.747120 0.701890 0.221097
0.913896 0.710667 0.225021
0.938344 0.719126 0.235171
0.172436 0.734917 0.254946
0.185430 0.739260 0.254764
0.197380 0.740326 0.252287
0.620327 0.789621 0.235328
0.918474 0.840103 0.295034
0.937281 0.846858 0.315702
0.184375 0.764601 0.266259
0.196281 0.769789 0.266697
0.209419 0.771466 0.265986
0.591744 0.812521 0.244802
0.915605 0.878968 0.327850
0.938461 0.882250 0.343770
0.000000 0.006809 0.101832
0.156604 0.016917 0.110927
0.453893 0.064688 0.085272
0.741745 0.174936 0.147474
0.816931 0.210056 0.169679
0.845263 0.224017 0.177752
0.000000 0.132815 0.117830
0.070828 0.133888 0.119546
0.456887 0.133766 0.091372
0.735421 0.188783 0.145082
0.811520 0.223304 0.168273
0.840330 0.235805 0.175432
0.035220 0.373908 0.140708
0.047676 0.374154 0.138815
0.430533 0.413986 0.138888
0.776112 0.446447 0.154190
0.862446 0.446902 0.176513
0.889422 0.450602 0.185601
0.130923 0.634753 0.239365
0.142912 0.636599 0.234500
0.164407 0.633037 0.224003
0.744276 0.706299 0.243699
0.915941 0.716333 0.246439
0.938837 0.725403 0.258543
0.174752 0.739912 0.277938
0.189127 0.744881 0.279045
0.201200 0.748357 0.277710
0.613769 0.794722 0.259172
0.916048 0.850675 0.328615
0.937522 0.857398 0.348219
0.187219 0.770451 0.290066
0.201533 0.776069 0.291680
0.213319 0.779598 0.290936
0.586687 0.818659 0.271255
0.916633 0.889000 0.360320
0.941140 0.891893 0.374743
0.001004 0.068736 0.314631
0.047913 0.066707 0.296518
0.440762 0.083162 0.295174
0.745814 0.174790 0.265931
0.823630 0.210474 0.275471
0.851933 0.223063 0.280195
0.001873 0.104485 0.317939
0.029301 0.108527 0.303179
0.434447 0.107409 0.300457
0.740157 0.190029 0.268296
0.820547 0.225912 0.278637
0.849103 0.237233 0.282239
0.047961 0.393816 0.339832
0.061039 0.394370 0.342955
0.326734 0.418112 0.379601
0.761081 0.415547 0.301584
0.847918 0.411667 0.300973
0.877907 0.418556 0.306864
0.145370 0.656074 0.394208
0.158689 0.659548 0.395489
0.177909 0.660915 0.394457
0.732486 0.730024 0.397529
0.916597 0.756815 0.422394
0.939747 0.772972 0.448145
0.185968 0.759931 0.372697
0.200395 0.766074 0.374216
0.213254 0.771670 0.375793
0.594168 0.816192 0.359329
0.922387 0.888095 0.458777
0.945796 0.894338 0.480714
0.197079 0.788750 0.375493
0.210316 0.794808 0.377027
0.223998 0.800496 0.379018
0.579176 0.843837 0.375597
0.925773 0.919292 0.475412
0.948307 0.920335 0.486233
0.029611 0.101626 0.586220
0.050688 0.094527 0.589262
0.336159 0.075505 0.543057
0.707505 0.157405 0.509575
0.802033 0.190190 0.497340
0.832325 0.204547 0.495157
0.026669 0.138358 0.585466
0.053037 0.133454 0.587887
0.324010 0.116162 0.552258
0.699893 0.173041 0.516742
0.796140 0.203608 0.504231
0.827576 0.217719 0.502171
0.035530 0.291173 0.544864
0.045590 0.292586 0.518806
0.246219 0.266565 0.552862
0.678085 0.246264 0.541509
0.793772 0.255941 0.519087
0.827619 0.268428 0.515031
0.155365 0.656967 0.596808
0.170028 0.660498 0.601472
0.183642 0.662350 0.606133
0.663511 0.749975 0.687643
0.914935 0.778652 0.685823
0.940145 0.786914 0.691631
0.216191 0.811512 0.632248
0.230721 0.818584 0.638334
0.244573 0.825457 0.644322
0.568592 0.889775 0.697625
0.917770 0.938138 0.744657
0.951148 0.943046 0.754156
0.226638 0.838533 0.636903
0.239637 0.846114 0.643081
0.254207 0.850136 0.647082
0.597444 0.921700 0.717375
0.913845 0.960172 0.756586
0.953211 0.965165 0.767129
0.050587 0.130161 0.710454
0.074702 0.125222 0.714983
0.289284 0.105612 0.653253
0.671396 0.148512 0.644929
0.771785 0.174944 0.643790
0.800659 0.186454 0.643458
0.041842 0.165008 0.706655
0.070100 0.159929 0.712888
0.271754 0.143135 0.656727
0.664939 0.168321 0.651573
0.766071 0.189667 0.648286
0.795759 0.201104 0.648385
0.039105 0.203792 0.706686
0.055246 0.202983 0.689144
0.201328 0.177013 0.647835
0.646640 0.192566 0.661728
0.761283 0.210864 0.653458
0.793770 0.221204 0.655024
0.158126 0.639957 0.706054
0.171280 0.642827 0.711815
0.184320 0.643290 0.716138
0.627131 0.717757 0.813121
0.887671 0.749410 0.834743
0.918278 0.763530 0.842068
0.223015 0.820659 0.749881
0.237672 0.826748 0.756949
0.252005 0.831010 0.763096
0.598997 0.903757 0.842855
0.926721 0.951872 0.883463
0.965574 0.957135 0.887545
0.238375 0.855025 0.756760
0.253210 0.860148 0.762922
0.269710 0.864745 0.768861
0.634356 0.941172 0.854131
0.934052 0.979781 0.888309
0.972883 0.984646 0.895854
0.055805 0.136368 0.735434
0.081462 0.132211 0.740792
0.282381 0.112290 0.676938
0.665713 0.150389 0.671395
0.766509 0.174026 0.668644
0.795675 0.184276 0.668846
0.046101 0.171527 0.731364
0.073538 0.165704 0.737398
0.263805 0.148633 0.679247
0.659825 0.171389 0.678325
0.761793 0.189296 0.673760
0.791522 0.199200 0.674031
0.043533 0.208770 0.731736
0.062744 0.205506 0.729801
0.190740 0.182227 0.669051
0.641071 0.195656 0.688380
0.758538 0.210025 0.679504
0.789701 0.219707 0.680337
0.159124 0.637223 0.731792
0.172340 0.639917 0.737550
0.184963 0.640269 0.741680
0.647447 0.726121 0.842160
0.888041 0.755546 0.858853
0.917353 0.766284 0.864227
0.224952 0.817846 0.782060
0.239632 0.823448 0.789154
0.254438 0.827221 0.794982
0.603328 0.898986 0.872143
0.926988 0.949456 0.908994
0.963907 0.955642 0.912223
0.241841 0.856719 0.791095
0.256869 0.861556 0.797025
0.274655 0.866679 0.803054
0.631287 0.940379 0.883378
0.936140 0.981801 0.916182
0.976637 0.987951 0.921510
