public/resources/lut/WED.cube
LUT_3D_SIZE 16
0.000000 0.000000 0.000000
0.022239 0.000000 0.000212
0.101791 0.000000 0.000261
0.176012 0.005330 0.000367
0.262620 0.028230 0.002546
0.364288 0.053703 0.016859
0.462455 0.084559 0.038148
0.547804 0.115413 0.058266
0.642815 0.148233 0.084327
0.737531 0.183969 0.112171
0.792560 0.207373 0.130234
0.804128 0.212113 0.135980
0.813598 0.215709 0.139468
0.822802 0.219235 0.141921
0.832180 0.223738 0.145054
0.841219 0.227593 0.147487
0.000000 0.003785 0.000000
0.007786 0.011705 0.000378
0.087009 0.024723 0.000000
0.178820 0.034098 0.000378
0.270233 0.051487 0.001497
0.365626 0.072458 0.013806
0.456290 0.094526 0.034296
0.547050 0.121508 0.057181
0.641596 0.153400 0.082942
0.735786 0.188410 0.110706
0.790582 0.210177 0.127836
0.803621 0.215872 0.134511
0.812636 0.219740 0.138408
0.821793 0.223620 0.141101
0.831115 0.227695 0.143973
0.840330 0.231738 0.146665
0.000000 0.054320 0.008416
0.001079 0.053903 0.007225
0.040371 0.060160 0.007629
0.165176 0.081251 0.005292
0.269829 0.092713 0.006771
0.367558 0.105052 0.015580
0.457953 0.114452 0.032910
0.546856 0.129240 0.055674
0.640695 0.159101 0.081326
0.734699 0.192885 0.109025
0.789621 0.215073 0.127024
0.801441 0.219452 0.132777
0.811519 0.224002 0.137296
0.820556 0.227687 0.139970
0.830181 0.231838 0.142884
0.839065 0.235710 0.145521
0.000000 0.117531 0.026035
0.000983 0.118143 0.026022
0.004564 0.119652 0.032245
0.111327 0.120288 0.017631
0.260694 0.143128 0.016298
0.372506 0.162671 0.024867
0.469054 0.175660 0.039641
0.555017 0.174642 0.055758
0.640703 0.176035 0.078466
0.733232 0.199217 0.106149
0.788611 0.219528 0.124908
0.800159 0.223864 0.130796
0.810878 0.228195 0.135334
0.820053 0.232023 0.137971
0.829436 0.236181 0.140895
0.838601 0.239874 0.143522
0.000000 0.192902 0.049803
0.000983 0.196188 0.055724
0.001908 0.195024 0.054567
0.032424 0.184319 0.044926
0.204637 0.202588 0.033823
0.370841 0.227534 0.038771
0.475772 0.246469 0.049516
0.568210 0.261149 0.065525
0.658806 0.265888 0.083115
0.740991 0.259662 0.103051
0.791241 0.251458 0.119762
0.801967 0.247119 0.126693
0.812029 0.247382 0.131184
0.821186 0.248792 0.133895
0.830754 0.252112 0.136734
0.839712 0.254912 0.139460
0.008915 0.280779 0.083270
0.012286 0.280198 0.081834
0.016184 0.279704 0.080439
0.019944 0.278048 0.078207
0.078552 0.269111 0.061042
0.325832 0.311074 0.065558
0.475707 0.328334 0.074260
0.576919 0.343682 0.081694
0.670299 0.355144 0.095303
0.759170 0.362895 0.110988
0.814245 0.364215 0.123307
0.824895 0.359104 0.128324
0.832831 0.355750 0.131481
0.843505 0.356055 0.134566
0.853260 0.357752 0.137969
0.862460 0.359189 0.141013
0.032774 0.369310 0.111720
0.036578 0.369214 0.110701
0.040949 0.369310 0.109542
0.043974 0.368253 0.107961
0.051020 0.368069 0.105747
0.192074 0.370774 0.086886
0.443321 0.414723 0.109604
0.571446 0.424669 0.112785
0.674653 0.437241 0.117340
0.771881 0.448059 0.127272
0.834210 0.453256 0.137577
0.845577 0.452066 0.139268
0.854751 0.451759 0.141217
0.863009 0.452445 0.143915
0.872750 0.454202 0.145847
0.881660 0.455744 0.148549
0.060046 0.455034 0.140335
0.063859 0.454737 0.138866
0.068059 0.455034 0.137916
0.070949 0.453585 0.135899
0.074837 0.452159 0.134274
0.096061 0.451439 0.128021
0.344052 0.476604 0.124110
0.540554 0.508643 0.148718
0.666900 0.515612 0.148662
0.776806 0.526598 0.149230
0.852018 0.538894 0.159913
0.868377 0.540804 0.162358
0.877684 0.542228 0.164499
0.886831 0.544213 0.167061
0.895393 0.545990 0.169225
0.904034 0.548295 0.171727
0.091886 0.542562 0.174930
0.095781 0.542135 0.173038
0.099324 0.541480 0.171166
0.103227 0.541119 0.169315
0.107966 0.540346 0.168043
0.110904 0.540045 0.166017
0.189471 0.537068 0.147350
0.459014 0.577038 0.162015
0.636840 0.604174 0.187887
0.772348 0.609467 0.181997
0.863301 0.620878 0.185979
0.888136 0.625456 0.190543
0.897507 0.627486 0.192703
0.906330 0.629673 0.194307
0.915367 0.632522 0.197450
0.923600 0.635060 0.200016
0.128413 0.629972 0.213509
0.132310 0.630049 0.211965
0.137087 0.629961 0.210705
0.139909 0.630049 0.208669
0.143927 0.629372 0.206910
0.147331 0.628514 0.205242
0.160262 0.625248 0.198706
0.303627 0.629580 0.179051
0.556702 0.676374 0.201613
0.747120 0.701890 0.221097
0.862634 0.704241 0.216845
0.904652 0.708715 0.222016
0.913896 0.710667 0.225021
0.922342 0.713035 0.227578
0.930536 0.716228 0.231738
0.938344 0.719126 0.235171
0.157859 0.700643 0.241118
0.162259 0.701720 0.240823
0.166597 0.702719 0.240460
0.170980 0.703675 0.239876
0.175026 0.704711 0.239159
0.179356 0.704420 0.238142
0.182618 0.703905 0.236481
0.244419 0.695563 0.216329
0.438199 0.721096 0.213628
0.693863 0.770034 0.237184
0.850286 0.784417 0.245146
0.909471 0.787892 0.256343
0.920929 0.789573 0.262977
0.927632 0.790822 0.267153
0.934000 0.793437 0.273564
0.939693 0.795538 0.279607
0.168087 0.724624 0.250831
0.172453 0.726408 0.250766
0.176807 0.727967 0.250633
0.181176 0.728147 0.250068
0.185466 0.729690 0.249778
0.189495 0.728963 0.248516
0.193066 0.729690 0.247547
0.220983 0.726930 0.238261
0.382151 0.735513 0.227064
0.648928 0.786485 0.235914
0.832902 0.818335 0.259634
0.901721 0.823628 0.274291
0.920478 0.827329 0.286042
0.926760 0.829115 0.291339
0.932811 0.831849 0.298600
0.938008 0.834295 0.305796
0.172436 0.734917 0.254946
0.176726 0.736546 0.254876
0.181158 0.737130 0.254683
0.185430 0.739260 0.254764
0.189747 0.740326 0.254327
0.193043 0.740300 0.253056
0.197380 0.740326 0.252287
0.215830 0.739359 0.246297
0.356212 0.741596 0.232846
0.620327 0.789621 0.235328
0.822309 0.828660 0.261546
0.893130 0.835773 0.281423
0.918474 0.840103 0.295034
0.926020 0.842562 0.302105
0.931708 0.844550 0.308599
0.937281 0.846858 0.315702
0.176423 0.744924 0.258954
0.180907 0.746400 0.258829
0.185124 0.748074 0.258944
0.189642 0.749358 0.259092
0.193816 0.749874 0.258680
0.198059 0.750436 0.258040
0.201448 0.750801 0.256964
0.218698 0.750436 0.251969
0.348054 0.751092 0.238807
0.605833 0.796008 0.236912
0.816753 0.838639 0.265704
0.890783 0.848643 0.290801
0.916781 0.852946 0.304699
0.923912 0.854258 0.311717
0.930830 0.856619 0.318361
0.936984 0.858826 0.325313
0.180379 0.754926 0.262630
0.184696 0.756205 0.262940
0.189100 0.757840 0.263122
0.193398 0.759142 0.263062
0.197909 0.761160 0.263193
0.201699 0.760275 0.262258
0.205515 0.761159 0.261668
0.222319 0.761067 0.257258
0.347008 0.761497 0.244504
0.599188 0.804138 0.240268
0.814915 0.848508 0.270440
0.888835 0.861417 0.300039
0.916774 0.866202 0.316735
0.924803 0.867737 0.322672
0.931682 0.868453 0.327506
0.937854 0.870927 0.334455
0.184375 0.764601 0.266259
0.188667 0.765921 0.266498
0.193079 0.767273 0.266739
0.196281 0.769789 0.266697
0.201806 0.770414 0.266988
0.205952 0.770995 0.266679
0.209419 0.771466 0.265986
0.225440 0.771883 0.262441
0.345536 0.772265 0.250409
0.591744 0.812521 0.244802
0.812167 0.857356 0.274457
0.887217 0.873657 0.307497
0.915605 0.878968 0.327850
0.924792 0.879981 0.333902
0.932097 0.881207 0.338647
0.938461 0.882250 0.343770
0.000000 0.000000 0.011339
0.007932 0.000000 0.008803
0.098602 0.000000 0.005146
0.177340 0.000916 0.010011
0.263105 0.015104 0.019098
0.361015 0.047929 0.026001
0.452395 0.076787 0.045797
0.545545 0.106328 0.068658
0.642730 0.141367 0.094671
0.737827 0.180751 0.122078
0.792528 0.204933 0.139246
0.804498 0.210508 0.145168
0.814037 0.213891 0.147943
0.823170 0.218606 0.151437
0.832744 0.222338 0.153538
0.841700 0.226212 0.156074
0.000000 0.006913 0.014505
0.001959 0.012165 0.014648
0.070474 0.014673 0.014947
0.174595 0.019414 0.008386
0.263477 0.035623 0.012884
0.360673 0.057825 0.024493
0.451757 0.083680 0.044828
0.544212 0.112271 0.067579
0.640468 0.146583 0.093522
0.735345 0.185105 0.121070
0.790477 0.208874 0.138047
0.803001 0.213662 0.143222
0.812724 0.218775 0.147942
0.821908 0.222818 0.150619
0.831569 0.226388 0.152603
0.840464 0.230324 0.155242
0.000000 0.055259 0.026818
0.001038 0.055930 0.027190
0.026023 0.060138 0.029260
0.160619 0.073670 0.018078
0.268132 0.078309 0.014490
0.363737 0.089665 0.023345
0.452023 0.100513 0.043257
0.543044 0.119029 0.066102
0.638492 0.151925 0.092140
0.733365 0.189492 0.119512
0.788420 0.212679 0.136603
0.801347 0.217291 0.141646
0.811687 0.222185 0.145985
0.820979 0.225907 0.148565
0.830494 0.230400 0.151614
0.839353 0.234340 0.154129
0.000000 0.120545 0.042936
0.000983 0.122481 0.043248
0.004564 0.125906 0.049540
0.103073 0.121403 0.034304
0.259145 0.141250 0.028570
0.372330 0.155436 0.033391
0.467532 0.163283 0.049087
0.550679 0.161996 0.066816
0.637537 0.167093 0.089720
0.731520 0.194872 0.116750
0.787745 0.217625 0.134998
0.800325 0.222490 0.140685
0.810893 0.226351 0.144260
0.820082 0.230418 0.147026
0.829558 0.234744 0.149855
0.838659 0.238605 0.152609
0.000000 0.195384 0.060793
0.001002 0.198716 0.066187
0.001908 0.197559 0.065142
0.030073 0.190108 0.057329
0.200855 0.202979 0.043542
0.369032 0.226328 0.046254
0.475901 0.244083 0.058454
0.569504 0.256190 0.076445
0.657794 0.257476 0.094375
0.739558 0.252567 0.114605
0.790245 0.247336 0.130654
0.801345 0.243975 0.136619
0.810939 0.243498 0.139868
0.820450 0.246590 0.144397
0.829665 0.249321 0.146384
0.838954 0.252188 0.149015
0.009638 0.283018 0.092733
0.013137 0.282707 0.091703
0.017006 0.281962 0.090350
0.021705 0.280597 0.088222
0.075787 0.271584 0.072610
0.321144 0.310151 0.073414
0.473853 0.328366 0.081707
0.576431 0.343481 0.088074
0.671884 0.354380 0.102036
0.761292 0.361338 0.119819
0.815807 0.361004 0.133939
0.826000 0.355410 0.139163
0.834345 0.352228 0.142791
0.843234 0.352734 0.146961
0.853503 0.354405 0.149328
0.863250 0.356052 0.152539
0.033573 0.370961 0.120337
0.037574 0.371144 0.119573
0.041782 0.370961 0.118448
0.045002 0.369964 0.116928
0.051693 0.370229 0.114875
0.186755 0.369030 0.095997
0.439873 0.414845 0.118214
0.570256 0.424967 0.120365
0.674505 0.437555 0.123640
0.772930 0.447933 0.132110
0.835039 0.452315 0.142140
0.847336 0.451144 0.144156
0.856401 0.450759 0.146355
0.865498 0.451537 0.149106
0.874474 0.453159 0.151954
0.883258 0.454650 0.154693
0.060808 0.456889 0.148463
0.064718 0.456599 0.147417
0.068849 0.456889 0.146334
0.071822 0.455581 0.144535
0.076528 0.455746 0.143635
0.097171 0.453051 0.137149
0.338238 0.475844 0.131930
0.538451 0.509134 0.156444
0.666550 0.516196 0.155789
0.777280 0.527161 0.154916
0.853577 0.539573 0.165177
0.869502 0.541080 0.167147
0.878936 0.542493 0.169278
0.887099 0.543884 0.171855
0.896504 0.546145 0.173950
0.905136 0.548443 0.176545
0.093073 0.544608 0.183254
0.097187 0.544561 0.181756
0.101536 0.543566 0.179863
0.104652 0.543479 0.178031
0.109239 0.542908 0.176390
0.112355 0.542284 0.174432
0.188577 0.538660 0.155526
0.455088 0.577171 0.168550
0.635296 0.605064 0.194712
0.772854 0.610730 0.188730
0.863957 0.621841 0.191911
0.889375 0.626806 0.196265
0.899203 0.628958 0.198382
0.907251 0.630766 0.200025
0.916089 0.633834 0.203164
0.924703 0.636427 0.205703
0.129316 0.631845 0.222092
0.133582 0.632470 0.220717
0.137994 0.632880 0.219357
0.141217 0.631396 0.217041
0.145506 0.631969 0.215676
0.148561 0.631671 0.213649
0.161846 0.627921 0.207072
0.301403 0.630630 0.186297
0.553723 0.676787 0.207705
0.746197 0.703273 0.228830
0.862974 0.705464 0.222949
0.905586 0.710954 0.229744
0.915118 0.713122 0.232694
0.923231 0.715227 0.235348
0.930816 0.718569 0.239347
0.938474 0.721284 0.242948
0.158613 0.702432 0.249107
0.163474 0.703972 0.249120
0.167349 0.704365 0.248408
0.172197 0.705794 0.248096
0.175596 0.706142 0.246909
0.180448 0.707290 0.246673
0.184278 0.707075 0.245514
0.245511 0.698335 0.224436
0.435240 0.722086 0.221150
0.692685 0.771668 0.244632
0.849806 0.786998 0.253688
0.908216 0.790843 0.266720
0.919548 0.792655 0.272392
0.926723 0.794207 0.277548
0.933012 0.796865 0.283980
0.938839 0.798973 0.290022
0.168819 0.726801 0.258623
0.173577 0.728509 0.258959
0.178628 0.729541 0.258854
0.182268 0.730515 0.258250
0.187061 0.731035 0.257941
0.190906 0.732170 0.257446
0.194678 0.733020 0.256592
0.222412 0.730376 0.247121
0.380414 0.737676 0.235303
0.646749 0.788155 0.244144
0.832427 0.821553 0.267903
0.900927 0.827919 0.285516
0.918887 0.830798 0.297066
0.926096 0.833472 0.303287
0.932065 0.835589 0.309691
0.937305 0.837718 0.316835
0.173132 0.736704 0.262635
0.177723 0.738403 0.263113
0.182924 0.739857 0.263301
0.186405 0.741433 0.262978
0.191250 0.742570 0.262905
0.194612 0.742563 0.261739
0.198880 0.743415 0.261321
0.217373 0.742563 0.255267
0.355171 0.743623 0.240826
0.617988 0.791087 0.243225
0.821697 0.831322 0.270569
0.893017 0.840169 0.293301
0.917660 0.843653 0.306869
0.925364 0.846093 0.312990
0.931768 0.847910 0.319568
0.937382 0.850640 0.326576
0.177369 0.746852 0.266810
0.181912 0.748582 0.267187
0.186134 0.749827 0.267025
0.191705 0.750429 0.267208
0.195441 0.753185 0.267246
0.198660 0.753847 0.266418
0.203056 0.754118 0.265865
0.220339 0.753847 0.260913
0.347880 0.753264 0.246402
0.603682 0.797899 0.245059
0.815545 0.840484 0.274302
0.889004 0.852257 0.300972
0.916776 0.857301 0.316643
0.924236 0.858576 0.322473
0.930824 0.860450 0.329432
0.937117 0.862474 0.336104
0.181400 0.756854 0.270722
0.186002 0.758849 0.271128
0.190132 0.760769 0.271264
0.194748 0.761764 0.271247
0.198456 0.762512 0.270706
0.203376 0.763575 0.270939
0.207172 0.764628 0.270572
0.223963 0.764813 0.266209
0.347093 0.764137 0.252148
0.597043 0.806051 0.248598
0.813619 0.850587 0.280037
0.888186 0.864770 0.310425
0.916612 0.869241 0.327368
0.924749 0.870762 0.333351
0.932038 0.872147 0.338109
0.938456 0.874013 0.345066
0.185235 0.766460 0.274344
0.189860 0.768559 0.274727
0.195043 0.770373 0.275267
0.198545 0.771470 0.274945
0.203317 0.773553 0.275562
0.206419 0.774191 0.274775
0.210863 0.774577 0.274604
0.226958 0.775044 0.271213
0.346093 0.774615 0.258180
0.589788 0.814280 0.253547
0.811194 0.860476 0.283252
0.886619 0.877172 0.319286
0.916065 0.882764 0.338617
0.924784 0.883357 0.345342
0.932495 0.884448 0.349372
0.939313 0.885633 0.354313
0.000000 0.000000 0.049979
0.009819 0.000887 0.051551
0.076611 0.000916 0.051977
0.179203 0.000965 0.043210
0.264387 0.012092 0.041579
0.360325 0.040139 0.046576
0.451577 0.069029 0.062663
0.544868 0.098916 0.082389
0.642937 0.134739 0.105689
0.739067 0.177548 0.132337
0.793566 0.202298 0.148382
0.804895 0.208664 0.154683
0.814240 0.212162 0.157319
0.824353 0.217079 0.160697
0.833977 0.220848 0.162924
0.842838 0.225184 0.165399
0.000000 0.015959 0.052686
0.001862 0.020584 0.052344
0.053093 0.019022 0.057489
0.174210 0.011391 0.042232
0.263532 0.021960 0.037058
0.359342 0.045266 0.044899
0.450666 0.075044 0.061864
0.543872 0.104785 0.081712
0.641249 0.140113 0.104909
0.736878 0.181882 0.131514
0.792115 0.207762 0.148984
0.803574 0.211733 0.152934
0.813343 0.216283 0.156738
0.822648 0.221276 0.160154
0.832203 0.224988 0.162341
0.840971 0.229026 0.164801
0.000000 0.062113 0.060602
0.001023 0.063729 0.061348
0.019435 0.066695 0.063880
0.145132 0.060264 0.048848
0.260978 0.058541 0.036029
0.360483 0.074123 0.044055
0.450245 0.087937 0.060800
0.542862 0.111109 0.080839
0.639156 0.145378 0.103816
0.734341 0.186340 0.130361
0.790233 0.211803 0.147862
0.801314 0.216615 0.152660
0.812055 0.220286 0.155636
0.821506 0.225368 0.159204
0.830764 0.228923 0.161222
0.839869 0.233099 0.163853
0.000000 0.126080 0.074550
0.000982 0.127852 0.075715
0.003963 0.132531 0.080600
0.086355 0.126793 0.072024
0.254478 0.139135 0.056178
0.368046 0.141478 0.051346
0.461839 0.148229 0.064337
0.546332 0.148260 0.081202
0.637241 0.158367 0.102225
0.731480 0.191466 0.128504
0.788323 0.216109 0.146203
0.800449 0.220522 0.150760
0.810861 0.224626 0.154133
0.820401 0.228704 0.156874
0.829635 0.233137 0.159727
0.838931 0.237197 0.162441
0.000822 0.202418 0.090480
0.001093 0.205033 0.093482
0.002366 0.204547 0.093512
0.027358 0.201769 0.090807
0.188396 0.207258 0.075862
0.365631 0.227734 0.071309
0.475113 0.241479 0.080158
0.570371 0.247104 0.091204
0.656007 0.248003 0.108037
0.737603 0.245577 0.127317
0.788576 0.243517 0.142950
0.800642 0.241103 0.147677
0.810825 0.241012 0.151241
0.820268 0.242913 0.153861
0.829574 0.246541 0.156868
0.838789 0.249331 0.159428
0.010602 0.285201 0.103161
0.014148 0.284857 0.102421
0.017295 0.284119 0.101225
0.021998 0.283783 0.099959
0.074266 0.275035 0.086315
0.316317 0.310080 0.083821
0.471154 0.329324 0.095284
0.575868 0.343984 0.102370
0.674997 0.353815 0.116851
0.763523 0.357931 0.133410
0.815845 0.356390 0.147306
0.825572 0.350515 0.152002
0.834081 0.348155 0.155730
0.843625 0.348531 0.158771
0.853404 0.350581 0.162285
0.862748 0.352359 0.165289
0.034375 0.372314 0.129247
0.038311 0.372519 0.128623
0.042613 0.372314 0.127757
0.046713 0.372474 0.126719
0.052953 0.372120 0.124593
0.180292 0.369714 0.103336
0.436015 0.414470 0.126494
0.568983 0.425550 0.128826
0.674627 0.437800 0.130196
0.773740 0.447435 0.137480
0.836811 0.451202 0.148731
0.849098 0.449712 0.152383
0.857638 0.449126 0.156567
0.866857 0.449602 0.158492
0.876505 0.451308 0.161222
0.885399 0.453108 0.164091
0.061770 0.458325 0.156894
0.065762 0.458317 0.155849
0.069823 0.457286 0.154562
0.073870 0.457284 0.153447
0.076711 0.457620 0.152261
0.097220 0.455910 0.146104
0.332987 0.475562 0.140026
0.536358 0.509894 0.164519
0.666246 0.516880 0.163056
0.777768 0.527673 0.160744
0.854110 0.539787 0.170580
0.870965 0.541831 0.172971
0.879791 0.542563 0.174195
0.887938 0.543875 0.176844
0.897482 0.546068 0.178915
0.905985 0.548377 0.181519
0.093975 0.546492 0.191865
0.098150 0.546389 0.190092
0.102469 0.546492 0.188584
0.106686 0.546389 0.187044
0.109371 0.545474 0.184816
0.113482 0.543476 0.182662
0.187615 0.540131 0.163759
0.450870 0.577274 0.175129
0.634030 0.605912 0.201567
0.773319 0.612003 0.195223
0.865524 0.623323 0.197725
0.889983 0.627506 0.201909
0.899501 0.629701 0.204031
0.908212 0.632008 0.205790
0.917469 0.634861 0.208769
0.925743 0.637565 0.211425
0.130178 0.633450 0.230879
0.134535 0.634193 0.229461
0.138864 0.634353 0.227730
0.143248 0.635094 0.226360
0.146820 0.633774 0.224087
0.150911 0.633609 0.222554
0.163181 0.630690 0.215533
0.299231 0.631574 0.193182
0.550984 0.677277 0.213668
0.744945 0.705085 0.236389
0.864038 0.707726 0.229883
0.906279 0.712597 0.236389
0.915621 0.714779 0.239940
0.923660 0.717026 0.241900
0.931299 0.720272 0.246643
0.939053 0.723334 0.250511
0.159591 0.704010 0.256943
0.164131 0.705661 0.256959
0.168315 0.707911 0.256970
0.172883 0.707535 0.256058
0.176916 0.708773 0.255469
0.181352 0.709861 0.255079
0.185632 0.709868 0.254076
0.246349 0.700943 0.232521
0.432489 0.723047 0.228784
0.690922 0.772954 0.252031
0.849317 0.789505 0.262309
0.907697 0.793385 0.275120
0.918781 0.794897 0.281628
0.925661 0.797253 0.287453
0.932095 0.799900 0.294245
0.938030 0.802578 0.300926
0.169753 0.727993 0.266270
0.174245 0.730024 0.266627
0.179602 0.731057 0.266803
0.184068 0.732902 0.266675
0.188448 0.734586 0.266518
0.191224 0.735522 0.265577
0.196064 0.735449 0.264979
0.223767 0.733681 0.255941
0.378359 0.739301 0.242941
0.644651 0.789618 0.251550
0.831594 0.824456 0.276612
0.899033 0.831032 0.295906
0.917719 0.834574 0.308380
0.924571 0.836833 0.313466
0.930749 0.839055 0.321009
0.936761 0.841239 0.328008
0.173861 0.738319 0.270366
0.178593 0.740376 0.270757
0.183676 0.742441 0.271304
0.188417 0.743087 0.271237
0.192560 0.745477 0.271162
0.196170 0.744878 0.270136
0.200181 0.746277 0.269751
0.218961 0.745935 0.264206
0.354658 0.745776 0.248508
0.615625 0.792919 0.251277
0.819291 0.832428 0.280209
0.891201 0.843200 0.304344
0.916590 0.847206 0.317338
0.923847 0.849689 0.324116
0.930625 0.851779 0.330974
0.937047 0.854229 0.337933
0.178178 0.748548 0.274498
0.182681 0.750358 0.274816
0.186890 0.751425 0.274716
0.191406 0.754317 0.275161
0.195632 0.754538 0.274868
0.200255 0.756184 0.274692
0.204395 0.756785 0.274165
0.221923 0.757207 0.269780
0.348018 0.755558 0.254048
0.601565 0.799578 0.253479
0.814443 0.842899 0.283911
0.888109 0.856040 0.312474
0.915780 0.860583 0.328697
0.923766 0.861769 0.334421
0.930721 0.864008 0.340423
0.937413 0.865842 0.347168
0.182334 0.758641 0.278362
0.186833 0.760579 0.278893
0.191041 0.762390 0.279247
0.195536 0.763584 0.279136
0.199710 0.765424 0.279133
0.204739 0.766814 0.279586
0.208409 0.767280 0.278929
0.225322 0.767922 0.274904
0.347306 0.766300 0.259748
0.594686 0.807926 0.257044
0.812249 0.852885 0.288652
0.886874 0.868474 0.321821
0.916054 0.873501 0.339640
0.924069 0.874393 0.345269
0.931789 0.875818 0.349522
0.938637 0.877537 0.356049
0.186390 0.768575 0.282123
0.190845 0.770456 0.282696
0.196158 0.772324 0.283548
0.199564 0.774217 0.283357
0.204584 0.775472 0.283536
0.208980 0.776353 0.283535
0.212206 0.777319 0.282988
0.228515 0.778319 0.279905
0.346551 0.776770 0.265876
0.588033 0.816288 0.262304
0.809619 0.862711 0.292916
0.886087 0.880821 0.330141
0.915702 0.885516 0.350299
0.925509 0.887193 0.356039
0.933038 0.888019 0.360342
0.940272 0.889050 0.364958
0.000000 0.006809 0.101832
0.004945 0.012472 0.105984
0.065507 0.016050 0.109953
0.156604 0.016917 0.110927
0.272040 0.015521 0.088879
0.363848 0.035646 0.073673
0.453893 0.064688 0.085272
0.547376 0.095787 0.102596
0.644359 0.130999 0.122847
0.741745 0.174936 0.147474
0.795942 0.201199 0.162892
0.808174 0.206211 0.166952
0.816931 0.210056 0.169679
0.826935 0.215436 0.172931
0.836557 0.219752 0.175311
0.845263 0.224017 0.177752
0.000000 0.023365 0.102789
0.001743 0.027729 0.104018
0.045835 0.026404 0.107293
0.149842 0.025387 0.108535
0.270289 0.019316 0.079615
0.361938 0.040653 0.072889
0.453134 0.070644 0.085164
0.546487 0.101603 0.102724
0.643129 0.136383 0.122836
0.739937 0.179539 0.147071
0.793896 0.205549 0.162504
0.805718 0.210818 0.166937
0.815016 0.214629 0.169590
0.825078 0.218357 0.171638
0.834644 0.223544 0.174763
0.843578 0.227887 0.177280
0.000000 0.070182 0.108721
0.001101 0.071153 0.108979
0.019435 0.074984 0.107809
0.120028 0.065886 0.108061
0.262150 0.047417 0.080030
0.361019 0.057376 0.072212
0.452512 0.079016 0.085016
0.545548 0.107608 0.102466
0.641820 0.142007 0.122470
0.737842 0.184071 0.146317
0.791654 0.209976 0.162085
0.804495 0.215362 0.166726
0.814006 0.219138 0.169315
0.823227 0.223459 0.171884
0.832710 0.227489 0.174030
0.841983 0.231600 0.176582
0.000000 0.132815 0.117830
0.000980 0.134720 0.119546
0.003401 0.137964 0.118744
0.070828 0.133888 0.119546
0.237557 0.128437 0.100654
0.360552 0.124172 0.082769
0.456887 0.133766 0.091372
0.547140 0.135371 0.103269
0.640302 0.151384 0.121592
0.735421 0.188783 0.145082
0.790251 0.214199 0.160992
0.801982 0.218675 0.164764
0.811520 0.223304 0.168273
0.821005 0.227476 0.170756
0.830901 0.231682 0.172991
0.840330 0.235805 0.175432
0.000987 0.211401 0.135978
0.001921 0.213380 0.134984
0.004203 0.212464 0.134830
0.026052 0.211178 0.136169
0.164439 0.215248 0.134028
0.359339 0.230484 0.117534
0.470276 0.231746 0.108666
0.565035 0.233459 0.112982
0.651560 0.235275 0.126554
0.735172 0.236615 0.144791
0.789194 0.239557 0.159075
0.800212 0.236462 0.162561
0.810840 0.236697 0.166061
0.820444 0.239023 0.168602
0.829598 0.242124 0.170763
0.838924 0.245103 0.173289
0.013941 0.293829 0.142186
0.017709 0.293749 0.142176
0.021764 0.293829 0.142372
0.026718 0.293749 0.142477
0.071351 0.291439 0.137680
0.296504 0.311263 0.131835
0.465050 0.334037 0.138834
0.573504 0.345037 0.139230
0.676075 0.350569 0.143643
0.764094 0.351750 0.153644
0.814933 0.350467 0.166096
0.824043 0.345515 0.170557
0.832247 0.342981 0.172919
0.842404 0.343826 0.176078
0.852565 0.345889 0.178602
0.862312 0.347862 0.181699
0.035220 0.373908 0.140708
0.039249 0.374154 0.140205
0.043504 0.375011 0.139939
0.047676 0.374154 0.138815
0.053828 0.373945 0.136981
0.173229 0.369037 0.116720
0.430533 0.413986 0.138888
0.566446 0.426673 0.145300
0.674600 0.438987 0.147344
0.776112 0.446447 0.154190
0.841445 0.449272 0.167016
0.853241 0.447433 0.172981
0.862446 0.446902 0.176513
0.871813 0.447710 0.179957
0.880542 0.448516 0.182160
0.889422 0.450602 0.185601
0.062313 0.459391 0.165418
0.066298 0.459361 0.164301
0.070384 0.459391 0.163236
0.074424 0.459361 0.162243
0.078299 0.458588 0.160874
0.097292 0.456595 0.154764
0.327121 0.474484 0.147642
0.534321 0.510371 0.172860
